;FLAVOR:Marlin
;TIME:844
;Filament used: 0.417504m
;Layer height: 0.2
;MINX:79.4
;MINY:80.4
;MINZ:0.2
;MAXX:140.6
;MAXY:139.6
;MAXZ:2
;Generated with Cura_SteamEngine 5.2.1
M82 ;absolute extrusion mode
; Ender 3 Custom Start G-code
G92 E0 ; Reset Extruder
G28 ; Home all axes
M104 S175.0 ; Start heating up the nozzle most of the way
M190 S60.0 ; Start heating the bed, wait until target temperature reached
M109 S230.0 ; Finish heating the nozzle
G1 Z2.0 F3000 ; Move Z Axis up little to prevent scratching of Heat Bed
G1 X0.1 Y20 Z0.3 F5000.0 ; Move to start position
G1 X0.1 Y200.0 Z0.3 F1500.0 E15 ; Draw the first line
G1 X0.4 Y200.0 Z0.3 F5000.0 ; Move to side a little
G1 X0.4 Y20 Z0.3 F1500.0 E30 ; Draw the second line
G92 E0 ; Reset Extruder
G1 Z2.0 F3000 ; Move Z Axis up little to prevent scratching of Heat Bed
G1 X5 Y20 Z0.3 F5000.0 ; Move over to prevent blob squish
G92 E0
G92 E0
G1 F1500 E-6.5
;LAYER_COUNT:10
;LAYER:0
M107
G0 F6000 X82.598 Y83.664 Z0.2
;TYPE:SKIRT
G1 F1500 E0
G1 F1200 X83.286 Y83.027 E0.03119
G1 X84.026 Y82.451 E0.06237
G1 X84.812 Y81.939 E0.09357
G1 X85.639 Y81.497 E0.12476
G1 X86.501 Y81.127 E0.15596
G1 X87.391 Y80.831 E0.18716
G1 X88.303 Y80.613 E0.21835
G1 X89.23 Y80.472 E0.24953
G1 X90.101 Y80.413 E0.27857
G1 X90.73 Y80.4 E0.29949
G1 X129.051 Y80.401 E1.57406
G1 X129.749 Y80.411 E1.59727
G1 X130.685 Y80.465 E1.62846
G1 X131.613 Y80.597 E1.65963
G1 X132.527 Y80.809 E1.69084
G1 X133.419 Y81.098 E1.72203
G1 X134.284 Y81.461 E1.75323
G1 X135.114 Y81.897 E1.78441
G1 X135.905 Y82.402 E1.81562
G1 X136.649 Y82.973 E1.84682
G1 X137.342 Y83.605 E1.87801
G1 X137.979 Y84.293 E1.9092
G1 X138.554 Y85.034 E1.94039
G1 X139.065 Y85.82 E1.97157
G1 X139.507 Y86.648 E2.00279
G1 X139.876 Y87.51 E2.03398
G1 X140.171 Y88.4 E2.06516
G1 X140.389 Y89.312 E2.09635
G1 X140.529 Y90.24 E2.12757
G1 X140.587 Y91.101 E2.15627
G1 X140.6 Y91.73 E2.17719
G1 X140.599 Y128 E3.38354
G1 X140.59 Y128.727 E3.40772
G1 X140.539 Y129.664 E3.43893
G1 X140.407 Y130.592 E3.47011
G1 X140.198 Y131.506 E3.50129
G1 X139.911 Y132.399 E3.53249
G1 X139.549 Y133.265 E3.56371
G1 X139.115 Y134.096 E3.59489
G1 X138.611 Y134.887 E3.62608
G1 X138.042 Y135.632 E3.65726
G1 X137.411 Y136.327 E3.68848
G1 X136.724 Y136.965 E3.71967
G1 X135.985 Y137.542 E3.75085
G1 X135.199 Y138.054 E3.78205
G1 X134.373 Y138.497 E3.81323
G1 X133.511 Y138.869 E3.84445
G1 X132.622 Y139.165 E3.87562
G1 X131.71 Y139.385 E3.90682
G1 X130.783 Y139.526 E3.93801
G1 X129.899 Y139.587 E3.96748
G1 X129.27 Y139.6 E3.9884
G1 X90.965 Y139.599 E5.26243
G1 X90.267 Y139.59 E5.28565
G1 X89.331 Y139.538 E5.31683
G1 X88.402 Y139.406 E5.34804
G1 X87.488 Y139.196 E5.37923
G1 X86.595 Y138.909 E5.41043
G1 X85.73 Y138.546 E5.44163
G1 X84.899 Y138.112 E5.47281
G1 X84.108 Y137.608 E5.50401
G1 X83.363 Y137.038 E5.53521
G1 X82.669 Y136.407 E5.5664
G1 X82.032 Y135.72 E5.59756
G1 X81.455 Y134.98 E5.62877
G1 X80.943 Y134.194 E5.65997
G1 X80.5 Y133.367 E5.69118
G1 X80.129 Y132.506 E5.72236
G1 X79.833 Y131.616 E5.75356
G1 X79.614 Y130.704 E5.78475
G1 X79.473 Y129.777 E5.81594
G1 X79.413 Y128.888 E5.84557
G1 X79.4 Y128.258 E5.86653
G1 X79.401 Y91.925 E7.07497
G1 X79.41 Y91.26 E7.09709
G1 X79.463 Y90.324 E7.12827
G1 X79.595 Y89.395 E7.15948
G1 X79.806 Y88.481 E7.19068
G1 X80.094 Y87.589 E7.22186
G1 X80.457 Y86.724 E7.25306
G1 X80.892 Y85.893 E7.28426
G1 X81.396 Y85.103 E7.31542
G1 X81.966 Y84.358 E7.34662
G1 X82.598 Y83.664 E7.37784
G0 F6000 X82.989 Y83.839
G1 F1200 X83.674 Y83.223 E7.40848
G1 X84.41 Y82.67 E7.4391
G1 X85.191 Y82.182 E7.46973
G1 X86.011 Y81.764 E7.50034
G1 X86.865 Y81.419 E7.53098
G1 X87.745 Y81.149 E7.56159
G1 X88.645 Y80.957 E7.5922
G1 X89.559 Y80.843 E7.62284
G1 X90.112 Y80.813 E7.64126
G1 X90.73 Y80.8 E7.66182
G1 X128.893 Y80.8 E8.93112
G1 X129.743 Y80.811 E8.9594
G1 X130.662 Y80.864 E8.99001
G1 X131.573 Y80.997 E9.02063
G1 X132.469 Y81.208 E9.05125
G1 X133.343 Y81.496 E9.08186
G1 X134.19 Y81.859 E9.11251
G1 X135.001 Y82.294 E9.14312
G1 X135.771 Y82.798 E9.17372
G1 X136.495 Y83.367 E9.20435
G1 X137.167 Y83.997 E9.23499
G1 X137.782 Y84.682 E9.26561
G1 X138.335 Y85.418 E9.29623
G1 X138.822 Y86.199 E9.32684
G1 X139.239 Y87.02 E9.35747
G1 X139.584 Y87.874 E9.3881
G1 X139.853 Y88.754 E9.41871
G1 X140.045 Y89.655 E9.44935
G1 X140.158 Y90.568 E9.47994
G1 X140.187 Y91.112 E9.49806
G1 X140.2 Y91.73 E9.51862
G1 X140.199 Y127.995 E10.7248
G1 X140.19 Y128.722 E10.74898
G1 X140.139 Y129.641 E10.7796
G1 X140.008 Y130.553 E10.81024
G1 X139.798 Y131.449 E10.84085
G1 X139.512 Y132.324 E10.87147
G1 X139.151 Y133.171 E10.90209
G1 X138.717 Y133.983 E10.93271
G1 X138.215 Y134.755 E10.96334
G1 X137.647 Y135.48 E10.99397
G1 X137.019 Y136.153 E11.02459
G1 X136.335 Y136.769 E11.05521
G1 X135.6 Y137.323 E11.08582
G1 X134.82 Y137.812 E11.11644
G1 X134 Y138.231 E11.14707
G1 X133.147 Y138.577 E11.17768
G1 X132.267 Y138.848 E11.20831
G1 X131.367 Y139.041 E11.23892
G1 X130.453 Y139.156 E11.26956
G1 X129.888 Y139.187 E11.28838
G1 X129.27 Y139.2 E11.30894
G1 X90.97 Y139.199 E12.5828
G1 X90.272 Y139.19 E12.60602
G1 X89.353 Y139.138 E12.63664
G1 X88.442 Y139.007 E12.66725
G1 X87.546 Y138.797 E12.69786
G1 X86.671 Y138.51 E12.72849
G1 X85.824 Y138.148 E12.75912
G1 X85.012 Y137.714 E12.78974
G1 X84.241 Y137.212 E12.82034
G1 X83.516 Y136.644 E12.85098
G1 X82.843 Y136.015 E12.88162
G1 X82.228 Y135.331 E12.91221
G1 X81.674 Y134.596 E12.94282
G1 X81.186 Y133.815 E12.97345
G1 X80.767 Y132.995 E13.00408
G1 X80.421 Y132.142 E13.0347
G1 X80.151 Y131.262 E13.06531
G1 X79.958 Y130.361 E13.09596
G1 X79.844 Y129.448 E13.12656
G1 X79.813 Y128.877 E13.14558
G1 X79.8 Y128.258 E13.16617
G1 X79.801 Y91.931 E14.37441
G1 X79.81 Y91.266 E14.39653
G1 X79.862 Y90.346 E14.42718
G1 X79.994 Y89.435 E14.4578
G1 X80.205 Y88.539 E14.48841
G1 X80.492 Y87.664 E14.51904
G1 X80.855 Y86.818 E14.54966
G1 X81.289 Y86.006 E14.58028
G1 X81.792 Y85.235 E14.6109
G1 X82.361 Y84.511 E14.64153
G1 X82.989 Y83.839 E14.67212
G0 F6000 X83.381 Y84.017
G1 F1200 X84.062 Y83.424 E14.70216
G1 X84.794 Y82.894 E14.73221
G1 X85.569 Y82.431 E14.76224
G1 X86.382 Y82.038 E14.79227
G1 X87.227 Y81.718 E14.82233
G1 X88.096 Y81.475 E14.85234
G1 X88.984 Y81.309 E14.88239
G1 X90.123 Y81.213 E14.9204
G1 X90.73 Y81.2 E14.9406
G1 X128.893 Y81.2 E16.2099
G1 X129.737 Y81.211 E16.23798
G1 X130.639 Y81.264 E16.26803
G1 X131.532 Y81.396 E16.29805
G1 X132.41 Y81.607 E16.32809
G1 X133.266 Y81.895 E16.35813
G1 X134.093 Y82.257 E16.38815
G1 X134.885 Y82.692 E16.41821
G1 X135.636 Y83.194 E16.44825
G1 X136.339 Y83.761 E16.47829
G1 X136.989 Y84.388 E16.50833
G1 X137.581 Y85.07 E16.53836
G1 X138.111 Y85.801 E16.5684
G1 X138.573 Y86.577 E16.59843
G1 X138.966 Y87.39 E16.62847
G1 X139.284 Y88.235 E16.6585
G1 X139.527 Y89.105 E16.68854
G1 X139.692 Y89.993 E16.71858
G1 X139.787 Y91.123 E16.7563
G1 X139.8 Y91.73 E16.77649
G1 X139.799 Y127.99 E17.9825
G1 X139.79 Y128.717 E18.00669
G1 X139.739 Y129.619 E18.03673
G1 X139.608 Y130.513 E18.06679
G1 X139.399 Y131.391 E18.0968
G1 X139.113 Y132.248 E18.12685
G1 X138.752 Y133.076 E18.1569
G1 X138.32 Y133.868 E18.1869
G1 X137.819 Y134.62 E18.21696
G1 X137.253 Y135.324 E18.247
G1 X136.628 Y135.975 E18.27702
G1 X135.947 Y136.569 E18.30707
G1 X135.216 Y137.1 E18.33712
G1 X134.442 Y137.564 E18.36714
G1 X133.629 Y137.958 E18.39719
G1 X132.785 Y138.278 E18.42721
G1 X131.915 Y138.523 E18.45727
G1 X131.028 Y138.689 E18.48728
G1 X129.877 Y138.787 E18.52571
G1 X129.27 Y138.8 E18.5459
G1 X90.975 Y138.799 E19.8196
G1 X90.277 Y138.79 E19.84281
G1 X89.376 Y138.739 E19.87283
G1 X88.482 Y138.607 E19.90289
G1 X87.604 Y138.398 E19.9329
G1 X86.747 Y138.111 E19.96296
G1 X85.92 Y137.75 E19.99298
G1 X85.127 Y137.317 E20.02303
G1 X84.376 Y136.816 E20.05305
G1 X83.672 Y136.25 E20.0831
G1 X83.021 Y135.624 E20.11314
G1 X82.428 Y134.943 E20.14317
G1 X81.898 Y134.212 E20.1732
G1 X81.434 Y133.437 E20.20325
G1 X81.04 Y132.624 E20.23329
G1 X80.72 Y131.78 E20.26332
G1 X80.476 Y130.91 E20.29337
G1 X80.31 Y130.022 E20.32341
G1 X80.213 Y128.867 E20.36197
G1 X80.2 Y128.258 E20.38223
G1 X80.201 Y91.936 E21.5903
G1 X80.21 Y91.271 E21.61242
G1 X80.262 Y90.369 E21.64247
G1 X80.394 Y89.476 E21.67249
G1 X80.604 Y88.598 E21.70252
G1 X80.891 Y87.741 E21.73258
G1 X81.253 Y86.914 E21.76261
G1 X81.686 Y86.122 E21.79263
G1 X82.188 Y85.371 E21.82267
G1 X82.755 Y84.667 E21.85274
G1 X83.381 Y84.017 E21.88275
G1 F1500 E15.38275
;MESH:DisplayHolder.stl
G0 F6000 X90.814 Y90.735
G0 X91 Y128
;TYPE:WALL-INNER
G1 F1500 E21.88275
G1 F1200 X129 Y128 E23.14664
G1 X129 Y92 E24.344
G1 X91 Y92 E25.60789
G1 X91 Y128 E26.80525
G0 F6000 X90.6 Y128.4
;TYPE:WALL-OUTER
G1 F1200 X129.4 Y128.4 E28.09575
G1 X129.4 Y91.6 E29.31972
G1 X90.6 Y91.6 E30.61021
G1 X90.6 Y128.4 E31.83419
G1 F1500 E25.33419
G0 F6000 X90.87 Y128.13
G0 X102.4 Y127.8
G0 X102.403 Y127.381
G0 X102.4 Y127.2
;TYPE:WALL-INNER
G1 F1500 E31.83419
G1 F1200 X102.039 Y127.081 E31.84683
G1 X101.846 Y126.831 E31.85733
G1 X101.8 Y126.6 E31.86517
G1 X101.8 Y122.2 E32.01151
G1 X95.787 Y122.2 E32.2115
G1 X96.058 Y122.345 E32.22173
G1 X96.466 Y122.674 E32.23916
G1 X96.756 Y123.108 E32.25652
G1 X96.911 Y123.481 E32.26995
G1 X97.014 Y123.987 E32.28713
G1 X96.964 Y124.491 E32.30397
G1 X96.845 Y124.902 E32.31821
G1 X96.602 Y125.36 E32.33545
G1 X96.234 Y125.728 E32.35276
G1 X95.802 Y126.016 E32.37003
G1 X95.198 Y126.193 E32.39096
G1 X94.588 Y126.193 E32.41125
G1 X93.996 Y126.014 E32.43182
G1 X93.566 Y125.728 E32.449
G1 X93.272 Y125.434 E32.46283
G1 X92.984 Y125.002 E32.4801
G1 X92.807 Y124.398 E32.50103
G1 X92.807 Y123.788 E32.52132
G1 X92.982 Y123.209 E32.54144
G1 X93.27 Y122.768 E32.55895
G1 X93.568 Y122.471 E32.57295
G1 X93.972 Y122.201 E32.58911
G1 X92.275 Y122.201 E32.64555
G1 X91.951 Y122 E32.65823
G1 X91.8 Y121.687 E32.66979
G1 X91.8 Y98.4 E33.44432
G1 X91.951 Y98 E33.45854
G1 X92.277 Y97.799 E33.47128
G1 X93.971 Y97.799 E33.52762
G1 X93.566 Y97.528 E33.54383
G1 X93.27 Y97.232 E33.55775
G1 X92.981 Y96.789 E33.57535
G1 X92.807 Y96.198 E33.59584
G1 X92.807 Y95.588 E33.61613
G1 X92.986 Y94.996 E33.6367
G1 X93.272 Y94.566 E33.65387
G1 X93.568 Y94.27 E33.66779
G1 X93.915 Y94.041 E33.68162
G1 X94.273 Y93.892 E33.69452
G1 X94.773 Y93.789 E33.7115
G1 X95.301 Y93.835 E33.72913
G1 X95.703 Y93.956 E33.74309
G1 X96.158 Y94.196 E33.7602
G1 X96.528 Y94.566 E33.7776
G1 X96.759 Y94.913 E33.79147
G1 X96.905 Y95.272 E33.80436
G1 X97.013 Y95.791 E33.82199
G1 X96.964 Y96.304 E33.83913
G1 X96.842 Y96.707 E33.85313
G1 X96.604 Y97.158 E33.8701
G1 X96.234 Y97.528 E33.8875
G1 X95.829 Y97.799 E33.90371
G1 X101.8 Y97.8 E34.1023
G1 X101.8 Y93.4 E34.24865
G1 X101.846 Y93.168 E34.25651
G1 X102.04 Y92.919 E34.26701
G1 X102.314 Y92.8 E34.27695
G1 X117.6 Y92.8 E34.78536
G1 X117.961 Y92.919 E34.79801
G1 X118.154 Y93.169 E34.80851
G1 X118.2 Y93.4 E34.81634
G1 X118.2 Y97.8 E34.96269
G1 X124.171 Y97.799 E35.16129
G1 X123.766 Y97.528 E35.17749
G1 X123.472 Y97.234 E35.19132
G1 X123.186 Y96.804 E35.2085
G1 X123.007 Y96.211 E35.2291
G1 X123.009 Y95.581 E35.25005
G1 X123.186 Y94.996 E35.27038
G1 X123.472 Y94.566 E35.28756
G1 X123.768 Y94.27 E35.30148
G1 X124.115 Y94.041 E35.31531
G1 X124.473 Y93.892 E35.32821
G1 X124.973 Y93.789 E35.34519
G1 X125.501 Y93.835 E35.36281
G1 X125.903 Y93.956 E35.37678
G1 X126.358 Y94.196 E35.39389
G1 X126.728 Y94.566 E35.41129
G1 X126.958 Y94.911 E35.42508
G1 X127.109 Y95.276 E35.43822
G1 X127.212 Y95.781 E35.45536
G1 X127.164 Y96.291 E35.4724
G1 X127.044 Y96.704 E35.4867
G1 X126.803 Y97.159 E35.50383
G1 X126.434 Y97.528 E35.52119
G1 X126.029 Y97.799 E35.53739
G1 X127.725 Y97.8 E35.5938
G1 X128.049 Y98 E35.60647
G1 X128.2 Y98.4 E35.62069
G1 X128.2 Y121.687 E36.39522
G1 X128.049 Y122 E36.40677
G1 X127.726 Y122.2 E36.41941
G1 X125.987 Y122.2 E36.47725
G1 X126.258 Y122.345 E36.48747
G1 X126.666 Y122.674 E36.5049
G1 X126.957 Y123.109 E36.52231
G1 X127.098 Y123.453 E36.53468
G1 X127.212 Y123.977 E36.55251
G1 X127.164 Y124.491 E36.56968
G1 X127.046 Y124.897 E36.58375
G1 X126.803 Y125.359 E36.60111
G1 X126.434 Y125.728 E36.61846
G1 X126.002 Y126.016 E36.63573
G1 X125.398 Y126.193 E36.65667
G1 X124.788 Y126.193 E36.67696
G1 X124.196 Y126.014 E36.69753
G1 X123.766 Y125.728 E36.7147
G1 X123.472 Y125.434 E36.72853
G1 X123.186 Y125.004 E36.74571
G1 X123.009 Y124.419 E36.76604
G1 X123.007 Y123.789 E36.78699
G1 X123.186 Y123.196 E36.80759
G1 X123.472 Y122.766 E36.82477
G1 X123.768 Y122.471 E36.83867
G1 X124.172 Y122.201 E36.85483
G1 X118.2 Y122.2 E37.05346
G1 X118.2 Y126.6 E37.1998
G1 X118.154 Y126.832 E37.20767
G1 X117.96 Y127.081 E37.21817
G1 X117.686 Y127.2 E37.2281
G1 X102.4 Y127.2 E37.73652
G0 F6000 X102.279 Y126.761
;TYPE:WALL-OUTER
G1 F1200 X102.2 Y126.657 E37.74086
G1 X102.2 Y121.8 E37.90241
G1 X95.64 Y121.801 E38.12059
G1 F1050.3 X95.236 Y121.857 E38.13609
G1 F944.9 X94.719 Y121.851 E38.15793
G1 F1057.3 X94.348 Y121.804 E38.17205
G1 F1185.2 X92.358 Y121.801 E38.23906
G1 F1197 X92.25 Y121.734 E38.2433
G1 F1200 X92.202 Y121.635 E38.24696
G1 X92.2 Y98.4 E39.01976
G1 X92.25 Y98.266 E39.02452
G1 X92.36 Y98.199 E39.0288
G1 X94.087 Y98.199 E39.08624
G1 F1050.3 X94.53 Y98.143 E39.10321
G1 F939.3 X95.208 Y98.147 E39.13202
G1 F1057.3 X95.713 Y98.199 E39.15118
G1 F1200 X102.2 Y98.2 E39.36694
G1 X102.2 Y93.341 E39.52855
G1 X102.28 Y93.239 E39.53286
G1 X102.365 Y93.202 E39.53595
G1 X117.6 Y93.2 E40.04267
G1 X117.721 Y93.239 E40.04689
G1 X117.8 Y93.343 E40.05124
G1 X117.8 Y98.2 E40.21278
G1 X124.287 Y98.199 E40.42854
G1 F1050.3 X124.73 Y98.143 E40.44551
G1 F939.3 X125.408 Y98.147 E40.47432
G1 F1057.3 X125.913 Y98.199 E40.49348
G1 F1200 X127.642 Y98.2 E40.55099
G1 X127.75 Y98.266 E40.5552
G1 X127.8 Y98.4 E40.55996
G1 X127.798 Y121.635 E41.33275
G1 X127.75 Y121.734 E41.33641
G1 X127.643 Y121.8 E41.3406
G1 X125.84 Y121.801 E41.40056
G1 F1050.3 X125.436 Y121.857 E41.41606
G1 F944.9 X124.919 Y121.851 E41.4379
G1 F1057.3 X124.548 Y121.804 E41.45202
G1 F1191.1 X117.8 Y121.8 E41.67814
G1 F1200 X117.8 Y126.659 E41.83975
G1 X117.72 Y126.761 E41.84406
G1 X117.635 Y126.798 E41.84715
G1 X102.4 Y126.8 E42.35387
G1 X102.279 Y126.761 E42.35809
G1 F1500 E35.85809
G0 F6000 X102.279 Y127.1
G0 X101.727 Y126.935
G0 X101.628 Y122.372
G0 X96.408 Y122.387
G0 X97.1 Y124.609
G0 X95.75 Y126.239
G0 X94.391 Y126.24
G1 F1500 E42.35809
G0 F6000 X94.648 Y125.793
G1 F1200 X94.168 Y125.648 E42.37477
G1 X93.808 Y125.404 E42.38924
G1 X93.596 Y125.192 E42.39921
G1 X93.352 Y124.832 E42.41367
G1 X93.209 Y124.356 E42.4302
G1 X93.207 Y123.879 E42.44607
G1 X93.215 Y123.821 E42.44802
G1 X93.356 Y123.363 E42.46396
G1 X93.596 Y123.008 E42.47821
G1 X93.838 Y122.772 E42.48945
G1 X94.082 Y122.609 E42.49921
G1 F1191.1 X94.415 Y122.467 E42.51134
G1 F1050.3 X94.787 Y122.341 E42.52627
G1 F939.3 X95.212 Y122.371 E42.54437
G1 F1050.3 X95.571 Y122.538 E42.55941
G1 F1200 X95.82 Y122.671 E42.5688
G1 X96.169 Y122.949 E42.58364
G1 X96.392 Y123.283 E42.597
G1 X96.53 Y123.616 E42.60899
G1 X96.61 Y124.008 E42.6223
G1 X96.57 Y124.422 E42.63613
G1 X96.477 Y124.733 E42.64693
G1 X96.277 Y125.119 E42.66139
G1 X95.992 Y125.404 E42.67479
G1 X95.632 Y125.648 E42.68926
G1 X95.156 Y125.791 E42.70579
G1 X94.648 Y125.793 E42.72268
G1 F1500 E36.22268
G0 F6000 X94.391 Y126.24
G0 X93.399 Y125.332
G0 X93.133 Y124.933
G0 X92.968 Y124.384
G0 X92.968 Y123.816
G0 X93.133 Y123.267
G0 X93.399 Y122.868
G0 X93.985 Y122.388
G0 X91.972 Y122.028
G0 X91.972 Y97.972
G0 X95.235 Y97.88
G1 F1500 E42.72268
G0 F6000 X95.165 Y97.644
G1 F939.3 X94.604 Y97.64 E42.74652
G1 F1050.3 X94.144 Y97.432 E42.76571
G1 F1200 X93.808 Y97.204 E42.77921
G1 X93.596 Y96.992 E42.78918
G1 X93.356 Y96.637 E42.80344
G1 X93.209 Y96.156 E42.82016
G1 X93.207 Y95.679 E42.83603
G1 X93.215 Y95.621 E42.83798
G1 X93.352 Y95.168 E42.85372
G1 X93.596 Y94.808 E42.86818
G1 X93.808 Y94.596 E42.87815
G1 X94.083 Y94.409 E42.88921
G1 X94.379 Y94.282 E42.89993
G1 X94.807 Y94.19 E42.91449
G1 X95.206 Y94.228 E42.92782
G1 X95.534 Y94.323 E42.93918
G1 X95.919 Y94.523 E42.95361
G1 X96.204 Y94.808 E42.96701
G1 X96.392 Y95.084 E42.97812
G1 X96.524 Y95.394 E42.98933
G1 X96.609 Y95.812 E43.00351
G1 X96.572 Y96.206 E43.01667
G1 X96.477 Y96.533 E43.028
G1 X96.277 Y96.919 E43.04246
G1 X95.992 Y97.204 E43.05587
