;FLAVOR:Marlin
;TIME:7158
;Filament used: 4.78075m
;Layer height: 0.2
;MINX:34.75
;MINY:70.432
;MINZ:0.2
;MAXX:185.25
;MAXY:149.568
;MAXZ:2
;Generated with Cura_SteamEngine 5.2.1
M82 ;absolute extrusion mode
; Ender 3 Custom Start G-code
G92 E0 ; Reset Extruder
G28 ; Home all axes
M104 S175.0 ; Start heating up the nozzle most of the way
M190 S60.0 ; Start heating the bed, wait until target temperature reached
M109 S230.0 ; Finish heating the nozzle
G1 Z2.0 F3000 ; Move Z Axis up little to prevent scratching of Heat Bed
G1 X0.1 Y20 Z0.3 F5000.0 ; Move to start position
G1 X0.1 Y200.0 Z0.3 F1500.0 E15 ; Draw the first line
G1 X0.4 Y200.0 Z0.3 F5000.0 ; Move to side a little
G1 X0.4 Y20 Z0.3 F1500.0 E30 ; Draw the second line
G92 E0 ; Reset Extruder
G1 Z2.0 F3000 ; Move Z Axis up little to prevent scratching of Heat Bed
G1 X5 Y20 Z0.3 F5000.0 ; Move over to prevent blob squish
G92 E0
G92 E0
G1 F1500 E-6.5
;LAYER_COUNT:10
;LAYER:0
M107
G0 F6000 X40.162 Y71.971 Z0.2
;TYPE:SKIRT
G1 F1500 E0
G1 F1200 X40.989 Y71.529 E0.03119
G1 X41.851 Y71.159 E0.06239
G1 X42.741 Y70.863 E0.09358
G1 X43.653 Y70.645 E0.12477
G1 X44.58 Y70.504 E0.15596
G1 X45.451 Y70.445 E0.18499
G1 X46.08 Y70.432 E0.20592
G1 X173.701 Y70.433 E4.45061
G1 X174.399 Y70.443 E4.47383
G1 X175.335 Y70.497 E4.50501
G1 X176.263 Y70.629 E4.53619
G1 X177.177 Y70.841 E4.5674
G1 X178.069 Y71.13 E4.59858
G1 X178.934 Y71.493 E4.62978
G1 X179.764 Y71.929 E4.66097
G1 X180.555 Y72.434 E4.69218
G1 X181.299 Y73.005 E4.72337
G1 X181.992 Y73.637 E4.75457
G1 X182.629 Y74.325 E4.78575
G1 X183.204 Y75.066 E4.81695
G1 X183.715 Y75.852 E4.84813
G1 X184.157 Y76.68 E4.87935
G1 X184.526 Y77.542 E4.91053
G1 X184.821 Y78.432 E4.94172
G1 X185.039 Y79.344 E4.97291
G1 X185.179 Y80.272 E5.00412
G1 X185.237 Y81.133 E5.03282
G1 X185.25 Y81.762 E5.05375
G1 X185.249 Y137.968 E6.92317
G1 X185.24 Y138.695 E6.94735
G1 X185.189 Y139.632 E6.97856
G1 X185.057 Y140.56 E7.00974
G1 X184.848 Y141.474 E7.04092
G1 X184.561 Y142.367 E7.07212
G1 X184.199 Y143.233 E7.10334
G1 X183.765 Y144.064 E7.13452
G1 X183.261 Y144.855 E7.16571
G1 X182.692 Y145.6 E7.19689
G1 X182.061 Y146.295 E7.22811
G1 X181.374 Y146.933 E7.2593
G1 X180.635 Y147.51 E7.29048
G1 X179.849 Y148.022 E7.32168
G1 X179.023 Y148.465 E7.35286
G1 X178.161 Y148.837 E7.38408
G1 X177.272 Y149.133 E7.41525
G1 X176.36 Y149.353 E7.44645
G1 X175.433 Y149.494 E7.47764
G1 X174.549 Y149.555 E7.50711
G1 X173.92 Y149.568 E7.52803
G1 X46.315 Y149.567 E11.77219
G1 X45.617 Y149.558 E11.79541
G1 X44.681 Y149.506 E11.82659
G1 X43.752 Y149.374 E11.8578
G1 X42.838 Y149.164 E11.88899
G1 X41.945 Y148.877 E11.92019
G1 X41.08 Y148.514 E11.95139
G1 X40.249 Y148.08 E11.98257
G1 X39.458 Y147.576 E12.01377
G1 X38.713 Y147.006 E12.04497
G1 X38.019 Y146.375 E12.07616
G1 X37.382 Y145.688 E12.10732
G1 X36.805 Y144.948 E12.13853
G1 X36.293 Y144.162 E12.16973
G1 X35.85 Y143.335 E12.20094
G1 X35.479 Y142.474 E12.23212
G1 X35.183 Y141.584 E12.26331
G1 X34.964 Y140.672 E12.29451
G1 X34.823 Y139.745 E12.3257
G1 X34.763 Y138.856 E12.35533
G1 X34.75 Y138.226 E12.37629
G1 X34.751 Y81.957 E14.24781
G1 X34.76 Y81.292 E14.26993
G1 X34.813 Y80.356 E14.30111
G1 X34.945 Y79.427 E14.33232
G1 X35.156 Y78.513 E14.36352
G1 X35.444 Y77.621 E14.39469
G1 X35.807 Y76.756 E14.42589
G1 X36.242 Y75.925 E14.45709
G1 X36.746 Y75.135 E14.48826
G1 X37.316 Y74.39 E14.51946
G1 X37.948 Y73.696 E14.55068
G1 X38.636 Y73.059 E14.58186
G1 X39.376 Y72.483 E14.61305
G1 X40.162 Y71.971 E14.64425
G0 F6000 X40.541 Y72.214
G1 F1200 X41.361 Y71.796 E14.67486
G1 X42.215 Y71.451 E14.7055
G1 X43.095 Y71.181 E14.73611
G1 X43.995 Y70.989 E14.76672
G1 X44.909 Y70.875 E14.79736
G1 X45.462 Y70.845 E14.81578
G1 X46.08 Y70.832 E14.83633
G1 X173.695 Y70.833 E19.08083
G1 X174.393 Y70.843 E19.10404
G1 X175.312 Y70.896 E19.13466
G1 X176.223 Y71.029 E19.16528
G1 X177.119 Y71.24 E19.1959
G1 X177.993 Y71.528 E19.22651
G1 X178.84 Y71.891 E19.25716
G1 X179.651 Y72.326 E19.28776
G1 X180.421 Y72.83 E19.31837
G1 X181.145 Y73.399 E19.349
G1 X181.817 Y74.029 E19.37964
G1 X182.432 Y74.714 E19.41026
G1 X182.985 Y75.45 E19.44087
G1 X183.472 Y76.231 E19.47149
G1 X183.889 Y77.052 E19.50211
G1 X184.234 Y77.906 E19.53275
G1 X184.503 Y78.786 E19.56335
G1 X184.695 Y79.687 E19.59399
G1 X184.808 Y80.6 E19.62459
G1 X184.837 Y81.144 E19.64271
G1 X184.85 Y81.762 E19.66327
G1 X184.849 Y137.963 E21.53252
G1 X184.84 Y138.69 E21.55671
G1 X184.789 Y139.609 E21.58732
G1 X184.658 Y140.521 E21.61796
G1 X184.448 Y141.417 E21.64857
G1 X184.162 Y142.292 E21.67919
G1 X183.801 Y143.139 E21.70981
G1 X183.367 Y143.951 E21.74044
G1 X182.865 Y144.723 E21.77106
G1 X182.297 Y145.448 E21.8017
G1 X181.669 Y146.121 E21.83231
G1 X180.985 Y146.737 E21.86293
G1 X180.25 Y147.291 E21.89354
G1 X179.47 Y147.78 E21.92416
G1 X178.65 Y148.199 E21.95479
G1 X177.797 Y148.545 E21.9854
G1 X176.917 Y148.816 E22.01603
G1 X176.017 Y149.009 E22.04664
G1 X175.103 Y149.124 E22.07728
G1 X174.538 Y149.155 E22.0961
G1 X173.92 Y149.168 E22.11666
G1 X46.32 Y149.167 E26.36066
G1 X45.622 Y149.158 E26.38387
G1 X44.703 Y149.106 E26.41449
G1 X43.792 Y148.975 E26.4451
G1 X42.896 Y148.765 E26.47571
G1 X42.021 Y148.478 E26.50634
G1 X41.174 Y148.116 E26.53697
G1 X40.362 Y147.682 E26.5676
G1 X39.591 Y147.18 E26.5982
G1 X38.866 Y146.612 E26.62883
G1 X38.193 Y145.983 E26.65947
G1 X37.578 Y145.299 E26.69006
G1 X37.024 Y144.564 E26.72067
G1 X36.536 Y143.783 E26.7513
G1 X36.117 Y142.963 E26.78193
G1 X35.771 Y142.11 E26.81255
G1 X35.501 Y141.23 E26.84316
G1 X35.308 Y140.329 E26.87381
G1 X35.194 Y139.416 E26.90441
G1 X35.163 Y138.845 E26.92343
G1 X35.15 Y138.226 E26.94403
G1 X35.151 Y81.963 E28.81534
G1 X35.16 Y81.298 E28.83746
G1 X35.212 Y80.378 E28.86811
G1 X35.344 Y79.467 E28.89873
G1 X35.555 Y78.571 E28.92934
G1 X35.842 Y77.696 E28.95997
G1 X36.205 Y76.85 E28.99059
G1 X36.639 Y76.038 E29.02121
G1 X37.142 Y75.267 E29.05183
G1 X37.711 Y74.543 E29.08246
G1 X38.339 Y73.871 E29.11305
G1 X39.024 Y73.255 E29.14369
G1 X39.76 Y72.702 E29.17431
G1 X40.541 Y72.214 E29.20494
G0 F6000 X40.919 Y72.463
G1 F1200 X41.732 Y72.07 E29.23497
G1 X42.577 Y71.75 E29.26502
G1 X43.446 Y71.507 E29.29504
G1 X44.334 Y71.341 E29.32508
G1 X45.473 Y71.245 E29.3631
G1 X46.08 Y71.232 E29.38329
G1 X173.689 Y71.233 E33.62759
G1 X174.387 Y71.243 E33.6508
G1 X175.289 Y71.296 E33.68086
G1 X176.182 Y71.428 E33.71088
G1 X177.06 Y71.639 E33.74092
G1 X177.916 Y71.927 E33.77095
G1 X178.743 Y72.289 E33.80098
G1 X179.535 Y72.724 E33.83103
G1 X180.286 Y73.226 E33.86108
G1 X180.989 Y73.793 E33.89112
G1 X181.639 Y74.42 E33.92116
G1 X182.231 Y75.102 E33.95119
G1 X182.761 Y75.833 E33.98122
G1 X183.223 Y76.609 E34.01126
G1 X183.616 Y77.422 E34.0413
G1 X183.934 Y78.267 E34.07133
G1 X184.177 Y79.137 E34.10137
G1 X184.342 Y80.025 E34.13141
G1 X184.437 Y81.155 E34.16913
G1 X184.45 Y81.762 E34.18932
G1 X184.449 Y137.958 E36.05841
G1 X184.44 Y138.685 E36.08259
G1 X184.389 Y139.587 E36.11264
G1 X184.258 Y140.481 E36.14269
G1 X184.049 Y141.359 E36.17271
G1 X183.763 Y142.216 E36.20276
G1 X183.402 Y143.044 E36.2328
G1 X182.97 Y143.836 E36.26281
G1 X182.469 Y144.588 E36.29286
G1 X181.903 Y145.292 E36.3229
G1 X181.278 Y145.943 E36.35292
G1 X180.597 Y146.537 E36.38298
G1 X179.866 Y147.068 E36.41303
G1 X179.092 Y147.532 E36.44304
G1 X178.279 Y147.926 E36.47309
G1 X177.435 Y148.246 E36.50311
G1 X176.565 Y148.491 E36.53317
G1 X175.678 Y148.657 E36.56319
G1 X174.527 Y148.755 E36.60161
G1 X173.92 Y148.768 E36.6218
G1 X46.325 Y148.767 E40.86563
G1 X45.627 Y148.758 E40.88885
G1 X44.726 Y148.707 E40.91886
G1 X43.832 Y148.575 E40.94892
G1 X42.954 Y148.366 E40.97894
G1 X42.097 Y148.079 E41.009
G1 X41.27 Y147.718 E41.03901
G1 X40.477 Y147.285 E41.06906
G1 X39.726 Y146.784 E41.09909
G1 X39.022 Y146.218 E41.12913
G1 X38.371 Y145.592 E41.15917
G1 X37.778 Y144.911 E41.1892
G1 X37.248 Y144.18 E41.21923
G1 X36.784 Y143.405 E41.24928
G1 X36.39 Y142.592 E41.27933
G1 X36.07 Y141.748 E41.30935
G1 X35.826 Y140.878 E41.3394
G1 X35.66 Y139.99 E41.36945
G1 X35.563 Y138.835 E41.408
G1 X35.55 Y138.226 E41.42826
G1 X35.551 Y81.968 E43.29941
G1 X35.56 Y81.303 E43.32153
G1 X35.612 Y80.401 E43.35158
G1 X35.744 Y79.508 E43.3816
G1 X35.954 Y78.63 E43.41163
G1 X36.241 Y77.773 E43.44169
G1 X36.603 Y76.946 E43.47171
G1 X37.036 Y76.154 E43.50173
G1 X37.538 Y75.403 E43.53178
G1 X38.105 Y74.699 E43.56184
G1 X38.731 Y74.049 E43.59186
G1 X39.412 Y73.456 E43.62189
G1 X40.144 Y72.926 E43.65195
G1 X40.919 Y72.463 E43.68198
G1 F1500 E37.18198
;MESH:LeftPanel.stl
G0 F6000 X62.323 Y101.674
G0 X67.702 Y116.778
;TYPE:WALL-INNER
G1 F1500 E43.68198
G1 F1200 X67.3 Y116.915 E43.6961
G1 X66.811 Y116.989 E43.71255
G1 X66.278 Y116.908 E43.73048
G1 X65.909 Y116.778 E43.7435
G1 X65.474 Y116.505 E43.76058
G1 X65.173 Y116.206 E43.77469
G1 X64.864 Y115.681 E43.79495
G1 X64.758 Y115.349 E43.80654
G1 X64.699 Y114.87 E43.82259
G1 X64.762 Y114.36 E43.83969
G1 X64.905 Y113.966 E43.85363
G1 X65.169 Y113.547 E43.8701
G1 X65.476 Y113.24 E43.88454
G1 X65.848 Y113.006 E43.89916
G1 X65.966 Y112.949 E43.90351
G1 F1098.4 X66.331 Y112.746 E43.91869
G1 X65.919 Y112.674 E43.93389
G1 F1200 X65.044 Y112.672 E43.96299
G1 X64.597 Y112.627 E43.97793
G1 X64.099 Y112.475 E43.99525
G1 X63.656 Y112.236 E44.01199
G1 X63.28 Y111.927 E44.02818
G1 X62.939 Y111.521 E44.04581
G1 X62.699 Y111.07 E44.06281
G1 X62.552 Y110.576 E44.07995
G1 X62.504 Y110.076 E44.09666
G1 X62.504 Y101.674 E44.37611
G1 X62.553 Y101.163 E44.39318
G1 X62.712 Y100.653 E44.41095
G1 X62.94 Y100.23 E44.42693
G1 X63.279 Y99.82 E44.44463
G1 X63.683 Y99.496 E44.46185
G1 X64.105 Y99.273 E44.47773
G1 X64.596 Y99.12 E44.49483
G1 X65.045 Y99.076 E44.50984
G1 X65.918 Y99.073 E44.53887
G1 F1098.4 X66.334 Y99.001 E44.55421
G1 X65.846 Y98.74 E44.57432
G1 F1200 X65.48 Y98.51 E44.5887
G1 X65.166 Y98.2 E44.60338
G1 X64.87 Y97.695 E44.62284
G1 X64.759 Y97.369 E44.6343
G1 X64.699 Y96.875 E44.65085
G1 X64.77 Y96.345 E44.66863
G1 X64.907 Y95.97 E44.68191
G1 X65.167 Y95.551 E44.69831
G1 X65.477 Y95.244 E44.71283
G1 X65.9 Y94.973 E44.72953
G1 X66.299 Y94.83 E44.74363
G1 X66.709 Y94.775 E44.75739
G1 X67.209 Y94.807 E44.77405
G1 X67.611 Y94.934 E44.78808
G1 X68.072 Y95.179 E44.80544
G1 X68.538 Y95.652 E44.82752
G1 X68.776 Y96.152 E44.84594
G1 X68.884 Y96.554 E44.85979
G1 X68.894 Y97.08 E44.87729
G1 X68.843 Y97.397 E44.88796
G1 X68.567 Y98.062 E44.91191
G1 X68.143 Y98.499 E44.93216
G1 X67.77 Y98.737 E44.94688
G1 X67.649 Y98.796 E44.95136
G1 F1095.9 X67.287 Y98.999 E44.96647
G1 X67.697 Y99.073 E44.98165
G1 F1200 X68.563 Y99.076 E45.01045
G1 X69.01 Y99.12 E45.02539
G1 X69.498 Y99.267 E45.04234
G1 X69.941 Y99.506 E45.05908
G1 X70.326 Y99.818 E45.07556
G1 X70.671 Y100.229 E45.09341
G1 X70.915 Y100.699 E45.11102
G1 X71.059 Y101.169 E45.12737
G1 X71.104 Y101.643 E45.14321
G1 X71.104 Y110.097 E45.42439
G1 X71.059 Y110.581 E45.44056
G1 X70.908 Y111.066 E45.45745
G1 X70.675 Y111.505 E45.47398
G1 X70.351 Y111.905 E45.49111
G1 X69.954 Y112.232 E45.50821
G1 X69.511 Y112.471 E45.52495
G1 X69.013 Y112.627 E45.54231
G1 X68.564 Y112.672 E45.55732
G1 X67.593 Y112.675 E45.58962
G1 F1111.1 X67.165 Y112.736 E45.60514
G1 X67.662 Y112.958 E45.6247
G1 F1200 X68.065 Y113.171 E45.63986
G1 X68.553 Y113.671 E45.6631
G1 X68.78 Y114.163 E45.68112
G1 X68.885 Y114.579 E45.69539
G1 X68.897 Y115.043 E45.71083
G1 X68.839 Y115.397 E45.72276
G1 X68.568 Y116.063 E45.74667
G1 X68.138 Y116.503 E45.76713
G1 X67.702 Y116.778 E45.78428
G0 F6000 X67.228 Y116.521
;TYPE:WALL-OUTER
G1 F1200 X66.825 Y116.583 E45.79784
G1 X66.4 Y116.526 E45.8121
G1 X66.084 Y116.415 E45.82324
G1 X65.737 Y116.198 E45.83686
G1 X65.49 Y115.955 E45.84838
G1 X65.24 Y115.541 E45.86447
G1 X65.15 Y115.272 E45.8739
G1 X65.105 Y114.898 E45.88643
G1 X65.105 Y114.849 E45.88806
G1 X65.151 Y114.472 E45.90069
G1 X65.261 Y114.159 E45.91172
G1 X65.472 Y113.817 E45.92509
G1 X65.746 Y113.543 E45.93798
G1 X66.1 Y113.326 E45.95179
G1 X66.375 Y113.228 E45.9615
G1 X66.702 Y113.176 E45.97251
G1 X67.113 Y113.202 E45.98621
G1 X67.439 Y113.297 E45.9975
G1 X67.823 Y113.496 E46.01189
G1 X68.204 Y113.882 E46.02993
G1 X68.404 Y114.298 E46.04528
G1 X68.487 Y114.624 E46.05647
G1 X68.497 Y115.035 E46.07014
G1 X68.458 Y115.271 E46.0781
G1 X68.226 Y115.843 E46.09863
G1 X67.892 Y116.182 E46.11446
G1 X67.542 Y116.407 E46.12829
G1 X67.228 Y116.521 E46.13941
G0 F6000 X67.327 Y116.803
G0 X68.037 Y116.375
G0 X68.43 Y115.977
G0 X68.685 Y115.357
G0 X68.726 Y114.59
G0 X68.64 Y114.254
G0 X67.966 Y113.005
G0 X67.147 Y112.739
;TYPE:WALL-INNER
G1 F932 X66.731 Y112.724 E46.15723
G1 F912.5 X66.346 Y112.749 E46.17411
G1 F1500 E39.67411
G0 F6000 X65.589 Y112.775
G0 X68.943 Y112.532
G1 F1500 E46.17411
G0 F6000 X68.915 Y112.235
;TYPE:WALL-OUTER
G1 F1200 X68.524 Y112.274 E46.18717
G1 X65.084 Y112.274 E46.30159
G1 X64.693 Y112.235 E46.31466
G1 X64.272 Y112.11 E46.32927
G1 X63.892 Y111.909 E46.34356
G1 X63.546 Y111.628 E46.35839
G1 X63.282 Y111.307 E46.37221
G1 X63.08 Y110.935 E46.38629
G1 X62.946 Y110.507 E46.40121
G1 X62.905 Y110.097 E46.41491
G1 X62.904 Y101.674 E46.69506
G1 X62.945 Y101.241 E46.70953
G1 X63.071 Y100.83 E46.72383
G1 X63.273 Y100.452 E46.73808
G1 X63.553 Y100.112 E46.75273
G1 X63.9 Y99.833 E46.76754
G1 X64.259 Y99.642 E46.78107
G1 X64.693 Y99.512 E46.79613
G1 X65.084 Y99.474 E46.8092
G1 X68.524 Y99.474 E46.92361
G1 X68.915 Y99.512 E46.93668
G1 X69.33 Y99.635 E46.95108
G1 X69.723 Y99.842 E46.96585
G1 X70.066 Y100.123 E46.9806
G1 X70.34 Y100.46 E46.99504
G1 X70.531 Y100.817 E47.00851
G1 X70.663 Y101.242 E47.02331
G1 X70.704 Y101.652 E47.03702
G1 X70.704 Y110.094 E47.3178
G1 X70.666 Y110.485 E47.33087
G1 X70.537 Y110.916 E47.34583
G1 X70.337 Y111.291 E47.35996
G1 X70.063 Y111.627 E47.37438
G1 X69.727 Y111.902 E47.38883
G1 X69.351 Y112.104 E47.40302
G1 X68.915 Y112.235 E47.41816
G1 F1500 E40.91816
G0 F6000 X68.943 Y112.532
G0 X69.86 Y112.103
G0 X70.23 Y111.801
G0 X70.534 Y111.43
G0 X70.759 Y111.008
G0 X70.899 Y110.549
G0 X70.943 Y110.094
G0 X70.943 Y101.654
G0 X70.899 Y101.198
G0 X70.759 Y100.739
G0 X70.534 Y100.317
G0 X70.23 Y99.946
G0 X69.86 Y99.644
G0 X69.519 Y99.463
G0 X67.245 Y98.822
G1 F1500 E47.41816
G0 F6000 X67.202 Y98.526
G1 F1200 X66.807 Y98.586 E47.43145
G1 X66.413 Y98.529 E47.44469
G1 X66.099 Y98.421 E47.45574
G1 X65.746 Y98.204 E47.46952
G1 X65.485 Y97.953 E47.48156
G1 X65.236 Y97.532 E47.49783
G1 X65.149 Y97.268 E47.50708
G1 X65.105 Y96.898 E47.51947
G1 X65.105 Y96.849 E47.5211
G1 X65.153 Y96.465 E47.53397
G1 X65.277 Y96.127 E47.54595
G1 X65.49 Y95.792 E47.55915
G1 X65.727 Y95.556 E47.57027
G1 X66.1 Y95.326 E47.58485
G1 X66.394 Y95.222 E47.59522
G1 X66.723 Y95.175 E47.60627
G1 X67.136 Y95.205 E47.62005
G1 X67.439 Y95.297 E47.63058
G1 X67.813 Y95.492 E47.64461
G1 X68.216 Y95.899 E47.66366
G1 X68.402 Y96.294 E47.67818
G1 X68.487 Y96.619 E47.68935
G1 X68.497 Y97.028 E47.70296
G1 X68.458 Y97.272 E47.71118
G1 X68.227 Y97.841 E47.7316
G1 X67.904 Y98.171 E47.74696
G1 X67.515 Y98.419 E47.76231
G1 X67.202 Y98.526 E47.77331
G0 F6000 X67.273 Y98.997
;TYPE:WALL-INNER
G1 F919.5 X66.809 Y99.029 E47.79349
G1 F921.3 X66.345 Y98.999 E47.81364
G1 F1500 E41.31364
G0 F6000 X65.658 Y98.741
G0 X69.982 Y99.321
G0 X83.659 Y98.212
G0 X85.525 Y98.99
G1 F1500 E47.81364
G1 F1200 X85.008 Y98.912 E47.83103
G1 X84.602 Y98.764 E47.8454
G1 X84.107 Y98.429 E47.86528
G1 X83.717 Y98.006 E47.88442
G1 X83.473 Y97.38 E47.90676
G1 X83.421 Y96.942 E47.92143
G1 X83.418 Y96.827 E47.92526
G1 X83.446 Y96.523 E47.93541
G1 X83.577 Y96.06 E47.95142
G1 X83.825 Y95.624 E47.9681
G1 X84.116 Y95.303 E47.98251
G1 X84.605 Y94.976 E48.00208
G1 X85.01 Y94.834 E48.01635
G1 X85.423 Y94.775 E48.03023
G1 X85.918 Y94.807 E48.04673
G1 X86.239 Y94.901 E48.05785
G1 X86.687 Y95.128 E48.07455
G1 X87.071 Y95.459 E48.09142
G1 X87.324 Y95.796 E48.10543
G1 X87.493 Y96.159 E48.11875
G1 X87.597 Y96.575 E48.13301
G1 X87.611 Y97.085 E48.14998
G1 X87.502 Y97.572 E48.16658
G1 X87.265 Y98.079 E48.18519
G1 X86.851 Y98.498 E48.20479
G1 X86.422 Y98.775 E48.22177
G1 X86.044 Y98.908 E48.2351
G1 X85.525 Y98.99 E48.25257
G0 F6000 X86.258 Y98.406
;TYPE:WALL-OUTER
G1 F1200 X85.939 Y98.522 E48.26386
G1 X85.522 Y98.586 E48.2779
G1 X85.087 Y98.519 E48.29253
