;FLAVOR:Marlin
;TIME:9802
;Filament used: 6.76094m
;Layer height: 0.2
;MINX:34.75
;MINY:49.965
;MINZ:0.2
;MAXX:185.25
;MAXY:170.035
;MAXZ:2
;Generated with Cura_SteamEngine 5.2.1
M82 ;absolute extrusion mode
; Ender 3 Custom Start G-code
G92 E0 ; Reset Extruder
G28 ; Home all axes
M104 S175 ; Start heating up the nozzle most of the way
M190 S60 ; Start heating the bed, wait until target temperature reached
M109 S200 ; Finish heating the nozzle
G1 Z2.0 F3000 ; Move Z Axis up little to prevent scratching of Heat Bed
G1 X0.1 Y20 Z0.3 F5000.0 ; Move to start position
G1 X0.1 Y200.0 Z0.3 F1500.0 E15 ; Draw the first line
G1 X0.4 Y200.0 Z0.3 F5000.0 ; Move to side a little
G1 X0.4 Y20 Z0.3 F1500.0 E30 ; Draw the second line
G92 E0 ; Reset Extruder
G1 Z2.0 F3000 ; Move Z Axis up little to prevent scratching of Heat Bed
G1 X5 Y20 Z0.3 F5000.0 ; Move over to prevent blob squish
G92 E0
G92 E0
G1 F1500 E-6.5
;LAYER_COUNT:10
;LAYER:0
M107
G0 F6000 X39.376 Y52.016 Z0.2
;TYPE:SKIRT
G1 F1500 E0
G1 F1200 X40.162 Y51.504 E0.0312
G1 X40.989 Y51.062 E0.06239
G1 X41.851 Y50.692 E0.09359
G1 X42.741 Y50.396 E0.12478
G1 X43.653 Y50.178 E0.15597
G1 X44.58 Y50.037 E0.18716
G1 X45.451 Y49.978 E0.21619
G1 X46.08 Y49.965 E0.23712
G1 X173.701 Y49.966 E4.48181
G1 X174.399 Y49.976 E4.50503
G1 X175.335 Y50.03 E4.53621
G1 X176.263 Y50.162 E4.56739
G1 X177.177 Y50.374 E4.59859
G1 X178.069 Y50.663 E4.62978
G1 X178.934 Y51.026 E4.66098
G1 X179.764 Y51.462 E4.69216
G1 X180.555 Y51.967 E4.72338
G1 X181.299 Y52.538 E4.75457
G1 X181.992 Y53.17 E4.78577
G1 X182.629 Y53.858 E4.81695
G1 X183.204 Y54.599 E4.84815
G1 X183.715 Y55.385 E4.87933
G1 X184.157 Y56.213 E4.91055
G1 X184.526 Y57.075 E4.94173
G1 X184.821 Y57.965 E4.97292
G1 X185.039 Y58.877 E5.00411
G1 X185.179 Y59.805 E5.03532
G1 X185.237 Y60.666 E5.06402
G1 X185.25 Y61.295 E5.08495
G1 X185.249 Y158.435 E8.31584
G1 X185.24 Y159.162 E8.34002
G1 X185.189 Y160.099 E8.37123
G1 X185.057 Y161.027 E8.40241
G1 X184.848 Y161.941 E8.43359
G1 X184.561 Y162.834 E8.46479
G1 X184.199 Y163.7 E8.49601
G1 X183.765 Y164.531 E8.52719
G1 X183.261 Y165.322 E8.55838
G1 X182.692 Y166.067 E8.58956
G1 X182.061 Y166.762 E8.62078
G1 X181.374 Y167.4 E8.65197
G1 X180.635 Y167.977 E8.68315
G1 X179.849 Y168.489 E8.71435
G1 X179.023 Y168.932 E8.74553
G1 X178.161 Y169.304 E8.77675
G1 X177.272 Y169.6 E8.80792
G1 X176.36 Y169.82 E8.83912
G1 X175.433 Y169.961 E8.87031
G1 X174.549 Y170.022 E8.89978
G1 X173.92 Y170.035 E8.9207
G1 X46.315 Y170.034 E13.16486
G1 X45.617 Y170.025 E13.18808
G1 X44.681 Y169.973 E13.21926
G1 X43.752 Y169.841 E13.25047
G1 X42.838 Y169.631 E13.28166
G1 X41.945 Y169.344 E13.31286
G1 X41.08 Y168.981 E13.34406
G1 X40.249 Y168.547 E13.37524
G1 X39.458 Y168.043 E13.40644
G1 X38.713 Y167.473 E13.43764
G1 X38.019 Y166.842 E13.46883
G1 X37.382 Y166.155 E13.49999
G1 X36.805 Y165.415 E13.5312
G1 X36.293 Y164.629 E13.5624
G1 X35.85 Y163.802 E13.59361
G1 X35.479 Y162.941 E13.62479
G1 X35.183 Y162.051 E13.65598
G1 X34.964 Y161.139 E13.68718
G1 X34.823 Y160.212 E13.71837
G1 X34.763 Y159.323 E13.748
G1 X34.75 Y158.693 E13.76896
G1 X34.751 Y61.49 E17.00195
G1 X34.76 Y60.825 E17.02407
G1 X34.813 Y59.889 E17.05525
G1 X34.945 Y58.96 E17.08646
G1 X35.156 Y58.046 E17.11766
G1 X35.444 Y57.154 E17.14883
G1 X35.807 Y56.289 E17.18003
G1 X36.242 Y55.458 E17.21123
G1 X36.746 Y54.668 E17.2424
G1 X37.316 Y53.923 E17.2736
G1 X37.948 Y53.229 E17.30482
G1 X38.636 Y52.592 E17.336
G1 X39.376 Y52.016 E17.36719
G0 F6000 X39.76 Y52.235
G1 F1200 X40.541 Y51.747 E17.39782
G1 X41.361 Y51.329 E17.42843
G1 X42.215 Y50.984 E17.45907
G1 X43.095 Y50.714 E17.48968
G1 X43.995 Y50.522 E17.52029
G1 X44.909 Y50.408 E17.55093
G1 X45.462 Y50.378 E17.56935
G1 X46.08 Y50.365 E17.58991
G1 X173.695 Y50.366 E21.8344
G1 X174.393 Y50.376 E21.85762
G1 X175.312 Y50.429 E21.88823
G1 X176.223 Y50.562 E21.91885
G1 X177.119 Y50.773 E21.94947
G1 X177.993 Y51.061 E21.98008
G1 X178.84 Y51.424 E22.01073
G1 X179.651 Y51.859 E22.04134
G1 X180.421 Y52.363 E22.07194
G1 X181.145 Y52.932 E22.10257
G1 X181.817 Y53.562 E22.13321
G1 X182.432 Y54.247 E22.16383
G1 X182.985 Y54.983 E22.19445
G1 X183.472 Y55.764 E22.22506
G1 X183.889 Y56.585 E22.25569
G1 X184.234 Y57.439 E22.28632
G1 X184.503 Y58.319 E22.31693
G1 X184.695 Y59.22 E22.34757
G1 X184.808 Y60.133 E22.37816
G1 X184.837 Y60.677 E22.39628
G1 X184.85 Y61.295 E22.41684
G1 X184.849 Y158.43 E25.64757
G1 X184.84 Y159.157 E25.67175
G1 X184.789 Y160.076 E25.70236
G1 X184.658 Y160.988 E25.73301
G1 X184.448 Y161.884 E25.76361
G1 X184.162 Y162.759 E25.79423
G1 X183.801 Y163.606 E25.82485
G1 X183.367 Y164.418 E25.85548
G1 X182.865 Y165.19 E25.88611
G1 X182.297 Y165.915 E25.91674
G1 X181.669 Y166.588 E25.94735
G1 X180.985 Y167.204 E25.97797
G1 X180.25 Y167.758 E26.00858
G1 X179.47 Y168.247 E26.0392
G1 X178.65 Y168.666 E26.06983
G1 X177.797 Y169.012 E26.10045
G1 X176.917 Y169.283 E26.13107
G1 X176.017 Y169.476 E26.16169
G1 X175.103 Y169.591 E26.19233
G1 X174.538 Y169.622 E26.21115
G1 X173.92 Y169.635 E26.2317
G1 X46.32 Y169.634 E30.4757
G1 X45.622 Y169.625 E30.49892
G1 X44.703 Y169.573 E30.52953
G1 X43.792 Y169.442 E30.56014
G1 X42.896 Y169.232 E30.59075
G1 X42.021 Y168.945 E30.62138
G1 X41.174 Y168.583 E30.65202
G1 X40.362 Y168.149 E30.68264
G1 X39.591 Y167.647 E30.71324
G1 X38.866 Y167.079 E30.74387
G1 X38.193 Y166.45 E30.77451
G1 X37.578 Y165.766 E30.8051
G1 X37.024 Y165.031 E30.83572
G1 X36.536 Y164.25 E30.86635
G1 X36.117 Y163.43 E30.89697
G1 X35.771 Y162.577 E30.92759
G1 X35.501 Y161.697 E30.95821
G1 X35.308 Y160.796 E30.98885
G1 X35.194 Y159.883 E31.01945
G1 X35.163 Y159.312 E31.03847
G1 X35.15 Y158.693 E31.05907
G1 X35.151 Y61.496 E34.29185
G1 X35.16 Y60.831 E34.31397
G1 X35.212 Y59.911 E34.34462
G1 X35.344 Y59 E34.37524
G1 X35.555 Y58.104 E34.40585
G1 X35.842 Y57.229 E34.43648
G1 X36.205 Y56.383 E34.4671
G1 X36.639 Y55.571 E34.49772
G1 X37.142 Y54.8 E34.52834
G1 X37.711 Y54.076 E34.55897
G1 X38.339 Y53.404 E34.58956
G1 X39.024 Y52.788 E34.6202
G1 X39.76 Y52.235 E34.65082
G0 F6000 X40.144 Y52.459
G1 F1200 X40.919 Y51.996 E34.68085
G1 X41.732 Y51.603 E34.71088
G1 X42.577 Y51.283 E34.74093
G1 X43.446 Y51.04 E34.77094
G1 X44.334 Y50.874 E34.80099
G1 X45.473 Y50.778 E34.83901
G1 X46.08 Y50.765 E34.8592
G1 X173.689 Y50.766 E39.10349
G1 X174.387 Y50.776 E39.12671
G1 X175.289 Y50.829 E39.15677
G1 X176.182 Y50.961 E39.18679
G1 X177.06 Y51.172 E39.21682
G1 X177.916 Y51.46 E39.24686
G1 X178.743 Y51.822 E39.27689
G1 X179.535 Y52.257 E39.30694
G1 X180.286 Y52.759 E39.33699
G1 X180.989 Y53.326 E39.36703
G1 X181.639 Y53.953 E39.39706
G1 X182.231 Y54.635 E39.4271
G1 X182.761 Y55.366 E39.45713
G1 X183.223 Y56.142 E39.48717
G1 X183.616 Y56.955 E39.5172
G1 X183.934 Y57.8 E39.54723
G1 X184.177 Y58.67 E39.57728
G1 X184.342 Y59.558 E39.60732
G1 X184.437 Y60.688 E39.64503
G1 X184.45 Y61.295 E39.66523
G1 X184.449 Y158.425 E42.89578
G1 X184.44 Y159.152 E42.91997
G1 X184.389 Y160.054 E42.95001
G1 X184.258 Y160.948 E42.98007
G1 X184.049 Y161.826 E43.01009
G1 X183.763 Y162.683 E43.04013
G1 X183.402 Y163.511 E43.07018
G1 X182.97 Y164.303 E43.10018
G1 X182.469 Y165.055 E43.13024
G1 X181.903 Y165.759 E43.16028
G1 X181.278 Y166.41 E43.1903
G1 X180.597 Y167.004 E43.22035
G1 X179.866 Y167.535 E43.2504
G1 X179.092 Y167.999 E43.28042
G1 X178.279 Y168.393 E43.31047
G1 X177.435 Y168.713 E43.34049
G1 X176.565 Y168.958 E43.37055
G1 X175.678 Y169.124 E43.40056
G1 X174.527 Y169.222 E43.43899
G1 X173.92 Y169.235 E43.45918
G1 X46.325 Y169.234 E47.70301
G1 X45.627 Y169.225 E47.72622
G1 X44.726 Y169.174 E47.75624
G1 X43.832 Y169.042 E47.7863
G1 X42.954 Y168.833 E47.81631
G1 X42.097 Y168.546 E47.84637
G1 X41.27 Y168.185 E47.87639
G1 X40.477 Y167.752 E47.90644
G1 X39.726 Y167.251 E47.93646
G1 X39.022 Y166.685 E47.96651
G1 X38.371 Y166.059 E47.99655
G1 X37.778 Y165.378 E48.02658
G1 X37.248 Y164.647 E48.05661
G1 X36.784 Y163.872 E48.08666
G1 X36.39 Y163.059 E48.1167
G1 X36.07 Y162.215 E48.14673
G1 X35.826 Y161.345 E48.17678
G1 X35.66 Y160.457 E48.20682
G1 X35.563 Y159.302 E48.24538
G1 X35.55 Y158.693 E48.26564
G1 X35.551 Y61.501 E51.49825
G1 X35.56 Y60.836 E51.52037
G1 X35.612 Y59.934 E51.55043
G1 X35.744 Y59.041 E51.58045
G1 X35.954 Y58.163 E51.61048
G1 X36.241 Y57.306 E51.64054
G1 X36.603 Y56.479 E51.67056
G1 X37.036 Y55.687 E51.70058
G1 X37.538 Y54.936 E51.73063
G1 X38.105 Y54.232 E51.76069
G1 X38.731 Y53.582 E51.79071
G1 X39.412 Y52.989 E51.82074
G1 X40.144 Y52.459 E51.8508
G1 F1500 E45.3508
;MESH:MidPanel.stl
G0 F6000 X57.603 Y92.842
G0 X59.104 Y96.958
;TYPE:WALL-INNER
G1 F1500 E51.8508
G1 F1200 X58.528 Y97.103 E51.87056
G1 X58.078 Y97.103 E51.88552
G1 X57.486 Y96.949 E51.90587
G1 X57.032 Y96.687 E51.9233
G1 X56.692 Y96.355 E51.93911
G1 X56.49 Y96.07 E51.95073
G1 X56.211 Y95.407 E51.97465
G1 X56.211 Y94.751 E51.99647
G1 X56.222 Y94.614 E52.00104
G1 X56.402 Y94.108 E52.0189
G1 X56.619 Y93.754 E52.03271
G1 X57.074 Y93.275 E52.05469
G1 X57.594 Y93.033 E52.07376
G1 X57.976 Y92.934 E52.08689
G1 X58.514 Y92.916 E52.10479
G1 X58.996 Y93.026 E52.12124
G1 X59.474 Y93.248 E52.13877
G1 X60.03 Y93.764 E52.16399
G1 X60.274 Y94.281 E52.18301
G1 X60.386 Y94.692 E52.19718
G1 X60.398 Y95.152 E52.21248
G1 X60.344 Y95.534 E52.22531
G1 X60.123 Y96.072 E52.24466
G1 X59.879 Y96.395 E52.25812
G1 X59.558 Y96.702 E52.2729
G1 X59.104 Y96.958 E52.29023
G0 F6000 X58.953 Y96.583
;TYPE:WALL-OUTER
G1 F1200 X58.477 Y96.703 E52.30656
G1 X58.131 Y96.703 E52.31807
G1 X57.659 Y96.583 E52.33426
G1 X57.29 Y96.377 E52.34832
G1 X57.007 Y96.107 E52.36133
G1 X56.84 Y95.876 E52.37081
G1 X56.612 Y95.311 E52.39107
G1 X56.611 Y94.751 E52.4097
G1 X56.613 Y94.716 E52.41087
G1 X56.76 Y94.297 E52.42564
G1 X56.937 Y93.996 E52.43725
G1 X57.291 Y93.622 E52.45438
G1 X57.729 Y93.409 E52.47058
G1 X58.044 Y93.328 E52.48139
G1 X58.47 Y93.317 E52.49557
G1 X58.873 Y93.407 E52.5093
G1 X59.248 Y93.584 E52.52309
G1 X59.695 Y94.002 E52.54345
G1 X59.902 Y94.428 E52.5592
G1 X59.982 Y94.733 E52.56969
G1 X59.998 Y95.152 E52.58364
G1 X59.958 Y95.408 E52.59225
G1 X59.781 Y95.851 E52.60812
G1 X59.601 Y96.107 E52.61853
G1 X59.321 Y96.377 E52.63147
G1 X58.953 Y96.583 E52.64549
G1 F1500 E46.14549
G0 F6000 X59.1 Y96.845
G0 X58.451 Y97.284
G0 X59.139 Y122.889
G0 X59.091 Y126.962
;TYPE:WALL-INNER
G1 F1500 E52.64549
G1 F1200 X58.525 Y127.103 E52.66489
G1 X58.075 Y127.102 E52.67986
G1 X57.493 Y126.953 E52.69984
G1 X57.032 Y126.687 E52.71754
G1 X56.692 Y126.355 E52.73335
G1 X56.49 Y126.07 E52.74497
G1 X56.211 Y125.407 E52.76889
G1 X56.211 Y124.751 E52.79071
G1 X56.222 Y124.614 E52.79528
G1 X56.402 Y124.108 E52.81315
G1 X56.619 Y123.754 E52.82696
G1 X57.074 Y123.275 E52.84893
G1 X57.589 Y123.035 E52.86783
G1 X57.99 Y122.928 E52.88163
G1 X58.51 Y122.915 E52.89893
G1 X59.004 Y123.025 E52.91576
G1 X59.486 Y123.253 E52.9335
G1 X59.947 Y123.686 E52.95453
G1 X60.079 Y123.867 E52.96199
G1 X60.283 Y124.299 E52.97788
G1 X60.386 Y124.695 E52.99148
G1 X60.398 Y125.152 E53.00669
G1 X60.344 Y125.534 E53.01952
G1 X60.125 Y126.067 E53.03869
G1 X59.914 Y126.358 E53.05064
G1 X59.572 Y126.691 E53.06652
G1 X59.091 Y126.962 E53.08488
G0 F6000 X59.601 Y126.107
;TYPE:WALL-OUTER
G1 F1200 X59.319 Y126.378 E53.09789
G1 X58.958 Y126.58 E53.11165
G1 X58.471 Y126.703 E53.12836
G1 X58.14 Y126.703 E53.13936
G1 X57.666 Y126.586 E53.1556
G1 X57.29 Y126.377 E53.16991
G1 X57.007 Y126.107 E53.18292
G1 X56.84 Y125.876 E53.1924
G1 X56.612 Y125.311 E53.21266
G1 X56.611 Y124.751 E53.23129
G1 X56.613 Y124.716 E53.23246
G1 X56.76 Y124.297 E53.24723
G1 X56.937 Y123.996 E53.25884
G1 X57.291 Y123.622 E53.27597
G1 X57.727 Y123.41 E53.29209
G1 X58.028 Y123.332 E53.30243
G1 X58.473 Y123.316 E53.31724
G1 X58.891 Y123.414 E53.33152
G1 X59.257 Y123.587 E53.34499
G1 X59.702 Y124.005 E53.3653
G1 X59.909 Y124.451 E53.38165
G1 X59.982 Y124.733 E53.39134
G1 X59.998 Y125.152 E53.40528
G1 X59.958 Y125.408 E53.4139
G1 X59.781 Y125.851 E53.42977
G1 X59.601 Y126.107 E53.44018
G1 F1500 E46.94018
G0 F6000 X59.857 Y126.554
G0 X60.231 Y126.229
G0 X61.904 Y126.229
G0 X78.896 Y126.61
;TYPE:WALL-INNER
G1 F1500 E53.44018
G1 F1200 X62.239 Y126.607 E53.99419
G1 X62.081 Y126.568 E53.9996
G1 X61.873 Y126.429 E54.00792
G1 X61.762 Y126.269 E54.0144
G1 X61.704 Y126.101 E54.02031
G1 X61.704 Y94.01 E55.08766
G1 X61.742 Y93.798 E55.09483
G1 X61.858 Y93.607 E55.10226
G1 X62.11 Y93.441 E55.1123
G1 X62.27 Y93.41 E55.11772
G1 X78.836 Y93.41 E55.6687
G1 X79.051 Y93.462 E55.67606
G1 X79.249 Y93.606 E55.6842
G1 X79.339 Y93.736 E55.68946
G1 X79.401 Y93.948 E55.69681
G1 X79.4 Y126.088 E56.76579
G1 X79.259 Y126.402 E56.77724
G1 X79.079 Y126.544 E56.78486
G1 X78.896 Y126.61 E56.79133
G0 F6000 X79.003 Y126.081
;TYPE:WALL-OUTER
G1 F1200 X78.872 Y126.21 E56.79745
G1 X62.266 Y126.207 E57.34977
G1 X62.16 Y126.15 E57.35377
G1 X62.108 Y126.053 E57.35743
G1 X62.104 Y94.01 E58.42319
G1 X62.192 Y93.844 E58.42943
G1 X62.286 Y93.81 E58.43276
G1 X78.846 Y93.814 E58.98355
G1 X78.953 Y93.875 E58.98764
G1 X79.005 Y94.01 E58.99246
G1 X79.003 Y126.081 E60.05914
G1 F1500 E53.55914
G0 F6000 X79.505 Y125.92
G0 X88.879 Y126.232
G0 X91.018 Y127.104
;TYPE:WALL-INNER
G1 F1500 E60.05914
G1 F1200 X90.579 Y127.103 E60.07374
G1 X90.005 Y126.957 E60.09344
G1 X89.562 Y126.71 E60.11031
G1 X89.194 Y126.358 E60.12725
G1 X88.991 Y126.072 E60.13891
G1 X88.716 Y125.405 E60.16291
G1 X88.711 Y124.751 E60.18466
G1 X88.722 Y124.613 E60.18927
G1 X88.905 Y124.103 E60.20729
G1 X89.119 Y123.754 E60.2209
G1 X89.563 Y123.286 E60.24236
G1 X90.089 Y123.031 E60.2618
G1 X90.476 Y122.934 E60.27507
G1 X91.004 Y122.916 E60.29264
G1 X91.51 Y123.028 E60.30988
G1 X91.898 Y123.217 E60.32424
G1 X92.404 Y123.609 E60.34553
G1 X92.762 Y124.211 E60.36882
G1 X92.881 Y124.687 E60.38514
G1 X92.897 Y125.187 E60.40178
G1 X92.838 Y125.548 E60.41394
G1 X92.63 Y126.049 E60.43199
G1 X92.365 Y126.419 E60.44712
G1 X92.055 Y126.702 E60.46109
G1 X91.6 Y126.959 E60.47847
G1 X91.018 Y127.104 E60.49841
G0 F6000 X90.631 Y126.702
;TYPE:WALL-OUTER
G1 F1200 X90.15 Y126.58 E60.51492
G1 X89.786 Y126.374 E60.52883
G1 X89.507 Y126.107 E60.54167
G1 X89.34 Y125.876 E60.55116
G1 X89.112 Y125.327 E60.57093
G1 X89.111 Y124.751 E60.59009
G1 X89.113 Y124.716 E60.59125
G1 X89.26 Y124.297 E60.60602
G1 X89.437 Y123.996 E60.61763
G1 X89.791 Y123.622 E60.63476
G1 X90.229 Y123.409 E60.65096
G1 X90.544 Y123.328 E60.66178
G1 X90.959 Y123.317 E60.67559
G1 X91.374 Y123.407 E60.68971
G1 X91.681 Y123.553 E60.70102
G1 X92.09 Y123.874 E60.71831
G1 X92.383 Y124.348 E60.73684
G1 X92.486 Y124.751 E60.75068
G1 X92.497 Y125.164 E60.76442
G1 X92.455 Y125.42 E60.77305
G1 X92.274 Y125.867 E60.78909
G1 X92.063 Y126.152 E60.80088
G1 X91.816 Y126.377 E60.812
G1 X91.451 Y126.583 E60.82594
G1 X90.987 Y126.701 E60.84186
G1 X90.631 Y126.702 E60.8537
G1 F1500 E54.3537
G0 F6000 X90.503 Y127.184
G0 X91.091 Y126.972
G0 X92.72 Y126.244
G0 X102.989 Y126.35
G0 X103.928 Y126.388
;TYPE:WALL-INNER
G1 F1500 E60.8537
G1 F1200 X103.419 Y126.292 E60.87093
G1 X102.991 Y126.16 E60.88582
G1 X102.654 Y126.021 E60.89795
G1 X102.294 Y125.829 E60.91152
G1 X101.883 Y125.555 E60.92795
G1 X101.432 Y125.149 E60.94813
G1 X101.032 Y124.658 E60.9692
G1 X100.778 Y124.234 E60.98563
G1 X100.612 Y123.88 E60.99864
G1 X100.477 Y123.506 E61.01186
G1 X100.384 Y123.14 E61.02442
G1 X100.305 Y122.611 E61.04221
G1 X100.304 Y122.138 E61.05795
G1 X100.34 Y121.736 E61.07137
G1 X100.44 Y121.217 E61.08895
G1 X100.612 Y120.739 E61.10585
G1 X100.825 Y120.288 E61.12243
G1 X101.103 Y119.871 E61.1391
G1 X101.35 Y119.571 E61.15203
G1 X101.653 Y119.267 E61.1663
G1 X101.945 Y119.023 E61.17896
G1 X102.377 Y118.736 E61.19621
G1 X102.843 Y118.517 E61.21334
G1 X103.184 Y118.391 E61.22543
G1 X103.66 Y118.271 E61.24175
G1 X104.19 Y118.214 E61.25948
G1 X104.593 Y118.214 E61.27289
G1 X105.077 Y118.26 E61.28906
G1 X105.595 Y118.386 E61.30679
G1 X105.97 Y118.523 E61.32007
G1 X106.413 Y118.731 E61.33635
G1 X106.833 Y119.007 E61.35306
G1 X107.221 Y119.325 E61.36975
G1 X107.63 Y119.77 E61.38985
G1 X107.968 Y120.274 E61.41003
G1 X108.195 Y120.757 E61.42778
G1 X108.356 Y121.204 E61.44359
G1 X108.45 Y121.667 E61.4593
G1 X108.493 Y122.066 E61.47265
G1 X108.494 Y122.531 E61.48811
G1 X108.455 Y122.919 E61.50108
