;FLAVOR:Marlin
;TIME:7009
;Filament used: 4.90655m
;Layer height: 0.2
;MINX:34.75
;MINY:70.422
;MINZ:0.2
;MAXX:185.25
;MAXY:149.578
;MAXZ:2
;Generated with Cura_SteamEngine 5.2.1
M82 ;absolute extrusion mode
; Ender 3 Custom Start G-code
G92 E0 ; Reset Extruder
G28 ; Home all axes
M104 S230.0 ; Start heating up the nozzle most of the way
M190 S60.0 ; Start heating the bed, wait until target temperature reached
M109 S230.0 ; Finish heating the nozzle
G1 Z2.0 F3000 ; Move Z Axis up little to prevent scratching of Heat Bed
G1 X0.1 Y20 Z0.3 F5000.0 ; Move to start position
G1 X0.1 Y200.0 Z0.3 F1500.0 E15 ; Draw the first line
G1 X0.4 Y200.0 Z0.3 F5000.0 ; Move to side a little
G1 X0.4 Y20 Z0.3 F1500.0 E30 ; Draw the second line
G92 E0 ; Reset Extruder
G1 Z2.0 F3000 ; Move Z Axis up little to prevent scratching of Heat Bed
G1 X5 Y20 Z0.3 F5000.0 ; Move over to prevent blob squish
G92 E0
G92 E0
G1 F1500 E-6.5
;LAYER_COUNT:10
;LAYER:0
M107
G0 F6000 X40.162 Y71.961 Z0.2
;TYPE:SKIRT
G1 F1500 E0
G1 F1200 X40.989 Y71.519 E0.03119
G1 X41.851 Y71.149 E0.06239
G1 X42.741 Y70.853 E0.09358
G1 X43.653 Y70.635 E0.12477
G1 X44.58 Y70.494 E0.15596
G1 X45.451 Y70.435 E0.18499
G1 X46.08 Y70.422 E0.20592
G1 X173.701 Y70.423 E4.45061
G1 X174.399 Y70.433 E4.47383
G1 X175.335 Y70.487 E4.50501
G1 X176.263 Y70.619 E4.53619
G1 X177.177 Y70.831 E4.5674
G1 X178.069 Y71.12 E4.59858
G1 X178.934 Y71.483 E4.62978
G1 X179.764 Y71.919 E4.66097
G1 X180.555 Y72.424 E4.69218
G1 X181.299 Y72.995 E4.72337
G1 X181.992 Y73.627 E4.75457
G1 X182.629 Y74.315 E4.78575
G1 X183.204 Y75.056 E4.81695
G1 X183.715 Y75.842 E4.84813
G1 X184.157 Y76.67 E4.87935
G1 X184.526 Y77.532 E4.91053
G1 X184.821 Y78.422 E4.94172
G1 X185.039 Y79.334 E4.97291
G1 X185.179 Y80.262 E5.00412
G1 X185.237 Y81.123 E5.03282
G1 X185.25 Y81.752 E5.05375
G1 X185.249 Y137.978 E6.92383
G1 X185.24 Y138.705 E6.94801
G1 X185.189 Y139.642 E6.97922
G1 X185.057 Y140.57 E7.0104
G1 X184.848 Y141.484 E7.04159
G1 X184.561 Y142.377 E7.07278
G1 X184.199 Y143.243 E7.104
G1 X183.765 Y144.074 E7.13518
G1 X183.261 Y144.865 E7.16638
G1 X182.692 Y145.61 E7.19756
G1 X182.061 Y146.305 E7.22878
G1 X181.374 Y146.943 E7.25996
G1 X180.635 Y147.52 E7.29115
G1 X179.849 Y148.032 E7.32235
G1 X179.023 Y148.475 E7.35352
G1 X178.161 Y148.847 E7.38475
G1 X177.272 Y149.143 E7.41591
G1 X176.36 Y149.363 E7.44711
G1 X175.433 Y149.504 E7.4783
G1 X174.549 Y149.565 E7.50777
G1 X173.92 Y149.578 E7.5287
G1 X46.315 Y149.577 E11.77286
G1 X45.617 Y149.568 E11.79608
G1 X44.681 Y149.516 E11.82725
G1 X43.752 Y149.384 E11.85846
G1 X42.838 Y149.174 E11.88966
G1 X41.945 Y148.887 E11.92085
G1 X41.08 Y148.524 E11.95205
G1 X40.249 Y148.09 E11.98324
G1 X39.458 Y147.586 E12.01443
G1 X38.713 Y147.016 E12.04563
G1 X38.019 Y146.385 E12.07683
G1 X37.382 Y145.698 E12.10799
G1 X36.805 Y144.958 E12.1392
G1 X36.293 Y144.172 E12.1704
G1 X35.85 Y143.345 E12.2016
G1 X35.479 Y142.484 E12.23278
G1 X35.183 Y141.594 E12.26398
G1 X34.964 Y140.682 E12.29518
G1 X34.823 Y139.755 E12.32636
G1 X34.763 Y138.866 E12.356
G1 X34.75 Y138.236 E12.37696
G1 X34.751 Y81.947 E14.24914
G1 X34.76 Y81.282 E14.27126
G1 X34.813 Y80.346 E14.30244
G1 X34.945 Y79.417 E14.33365
G1 X35.156 Y78.503 E14.36485
G1 X35.444 Y77.611 E14.39602
G1 X35.807 Y76.746 E14.42722
G1 X36.242 Y75.915 E14.45842
G1 X36.746 Y75.125 E14.48959
G1 X37.316 Y74.38 E14.52079
G1 X37.948 Y73.686 E14.55201
G1 X38.636 Y73.049 E14.58319
G1 X39.376 Y72.473 E14.61438
G1 X40.162 Y71.961 E14.64558
G0 F6000 X40.541 Y72.204
G1 F1200 X41.361 Y71.786 E14.67619
G1 X42.215 Y71.441 E14.70683
G1 X43.095 Y71.171 E14.73744
G1 X43.995 Y70.979 E14.76805
G1 X44.909 Y70.865 E14.79869
G1 X45.462 Y70.835 E14.81711
G1 X46.08 Y70.822 E14.83766
G1 X173.695 Y70.823 E19.08216
G1 X174.393 Y70.833 E19.10537
G1 X175.312 Y70.886 E19.13599
G1 X176.223 Y71.019 E19.16661
G1 X177.119 Y71.23 E19.19723
G1 X177.993 Y71.518 E19.22784
G1 X178.84 Y71.881 E19.25849
G1 X179.651 Y72.316 E19.28909
G1 X180.421 Y72.82 E19.3197
G1 X181.145 Y73.389 E19.35033
G1 X181.817 Y74.019 E19.38097
G1 X182.432 Y74.704 E19.41159
G1 X182.985 Y75.44 E19.44221
G1 X183.472 Y76.221 E19.47282
G1 X183.889 Y77.042 E19.50344
G1 X184.234 Y77.896 E19.53408
G1 X184.503 Y78.776 E19.56468
G1 X184.695 Y79.677 E19.59533
G1 X184.808 Y80.59 E19.62592
G1 X184.837 Y81.134 E19.64404
G1 X184.85 Y81.752 E19.6646
G1 X184.849 Y137.973 E21.53452
G1 X184.84 Y138.7 E21.5587
G1 X184.789 Y139.619 E21.58931
G1 X184.658 Y140.531 E21.61996
G1 X184.448 Y141.427 E21.65057
G1 X184.162 Y142.302 E21.68119
G1 X183.801 Y143.149 E21.71181
G1 X183.367 Y143.961 E21.74243
G1 X182.865 Y144.733 E21.77306
G1 X182.297 Y145.458 E21.80369
G1 X181.669 Y146.131 E21.83431
G1 X180.985 Y146.747 E21.86492
G1 X180.25 Y147.301 E21.89554
G1 X179.47 Y147.79 E21.92616
G1 X178.65 Y148.209 E21.95678
G1 X177.797 Y148.555 E21.9874
G1 X176.917 Y148.826 E22.01803
G1 X176.017 Y149.019 E22.04864
G1 X175.103 Y149.134 E22.07928
G1 X174.538 Y149.165 E22.0981
G1 X173.92 Y149.178 E22.11866
G1 X46.32 Y149.177 E26.36265
G1 X45.622 Y149.168 E26.38587
G1 X44.703 Y149.116 E26.41649
G1 X43.792 Y148.985 E26.4471
G1 X42.896 Y148.775 E26.47771
G1 X42.021 Y148.488 E26.50833
G1 X41.174 Y148.126 E26.53897
G1 X40.362 Y147.692 E26.56959
G1 X39.591 Y147.19 E26.60019
G1 X38.866 Y146.622 E26.63083
G1 X38.193 Y145.993 E26.66146
G1 X37.578 Y145.309 E26.69206
G1 X37.024 Y144.574 E26.72267
G1 X36.536 Y143.793 E26.7533
G1 X36.117 Y142.973 E26.78393
G1 X35.771 Y142.12 E26.81454
G1 X35.501 Y141.24 E26.84516
G1 X35.308 Y140.339 E26.87581
G1 X35.194 Y139.426 E26.90641
G1 X35.163 Y138.855 E26.92543
G1 X35.15 Y138.236 E26.94602
G1 X35.151 Y81.953 E28.818
G1 X35.16 Y81.288 E28.84012
G1 X35.212 Y80.368 E28.87077
G1 X35.344 Y79.457 E28.90139
G1 X35.555 Y78.561 E28.932
G1 X35.842 Y77.686 E28.96263
G1 X36.205 Y76.84 E28.99325
G1 X36.639 Y76.028 E29.02387
G1 X37.142 Y75.257 E29.05449
G1 X37.711 Y74.533 E29.08512
G1 X38.339 Y73.861 E29.11571
G1 X39.024 Y73.245 E29.14635
G1 X39.76 Y72.692 E29.17697
G1 X40.541 Y72.204 E29.2076
G0 F6000 X40.919 Y72.453
G1 F1200 X41.732 Y72.06 E29.23763
G1 X42.577 Y71.74 E29.26769
G1 X43.446 Y71.497 E29.2977
G1 X44.334 Y71.331 E29.32774
G1 X45.473 Y71.235 E29.36576
G1 X46.08 Y71.222 E29.38596
G1 X173.689 Y71.223 E33.63025
G1 X174.387 Y71.233 E33.65347
G1 X175.289 Y71.286 E33.68352
G1 X176.182 Y71.418 E33.71354
G1 X177.06 Y71.629 E33.74358
G1 X177.916 Y71.917 E33.77361
G1 X178.743 Y72.279 E33.80364
G1 X179.535 Y72.714 E33.83369
G1 X180.286 Y73.216 E33.86374
G1 X180.989 Y73.783 E33.89378
G1 X181.639 Y74.41 E33.92382
G1 X182.231 Y75.092 E33.95385
G1 X182.761 Y75.823 E33.98388
G1 X183.223 Y76.599 E34.01392
G1 X183.616 Y77.412 E34.04396
G1 X183.934 Y78.257 E34.07399
G1 X184.177 Y79.127 E34.10403
G1 X184.342 Y80.015 E34.13407
G1 X184.437 Y81.145 E34.17179
G1 X184.45 Y81.752 E34.19198
G1 X184.449 Y137.968 E36.06173
G1 X184.44 Y138.695 E36.08591
G1 X184.389 Y139.597 E36.11596
G1 X184.258 Y140.491 E36.14601
G1 X184.049 Y141.369 E36.17603
G1 X183.763 Y142.226 E36.20608
G1 X183.402 Y143.054 E36.23613
G1 X182.97 Y143.846 E36.26613
G1 X182.469 Y144.598 E36.29619
G1 X181.903 Y145.302 E36.32623
G1 X181.278 Y145.953 E36.35625
G1 X180.597 Y146.547 E36.3863
G1 X179.866 Y147.078 E36.41635
G1 X179.092 Y147.542 E36.44637
G1 X178.279 Y147.936 E36.47642
G1 X177.435 Y148.256 E36.50644
G1 X176.565 Y148.501 E36.5365
G1 X175.678 Y148.667 E36.56651
G1 X174.527 Y148.765 E36.60493
G1 X173.92 Y148.778 E36.62513
G1 X46.325 Y148.777 E40.86895
G1 X45.627 Y148.768 E40.89217
G1 X44.726 Y148.717 E40.92219
G1 X43.832 Y148.585 E40.95224
G1 X42.954 Y148.376 E40.98226
G1 X42.097 Y148.089 E41.01232
G1 X41.27 Y147.728 E41.04233
G1 X40.477 Y147.295 E41.07239
G1 X39.726 Y146.794 E41.10241
G1 X39.022 Y146.228 E41.13246
G1 X38.371 Y145.602 E41.16249
G1 X37.778 Y144.921 E41.19253
G1 X37.248 Y144.19 E41.22256
G1 X36.784 Y143.415 E41.2526
G1 X36.39 Y142.602 E41.28265
G1 X36.07 Y141.758 E41.31267
G1 X35.826 Y140.888 E41.34273
G1 X35.66 Y140 E41.37277
G1 X35.563 Y138.845 E41.41132
G1 X35.55 Y138.236 E41.43158
G1 X35.551 Y81.958 E43.3034
G1 X35.56 Y81.293 E43.32552
G1 X35.612 Y80.391 E43.35557
G1 X35.744 Y79.498 E43.38559
G1 X35.954 Y78.62 E43.41562
G1 X36.241 Y77.763 E43.44568
G1 X36.603 Y76.936 E43.4757
G1 X37.036 Y76.144 E43.50573
G1 X37.538 Y75.393 E43.53577
G1 X38.105 Y74.689 E43.56584
G1 X38.731 Y74.039 E43.59585
G1 X39.412 Y73.446 E43.62588
G1 X40.144 Y72.916 E43.65594
G1 X40.919 Y72.453 E43.68597
G1 F1500 E37.18597
;MESH:RightPanel.stl
G0 F6000 X77.606 Y112.527
G0 X81.817 Y118.221
;TYPE:WALL-INNER
G1 F1500 E43.68597
G1 F1200 X81.353 Y118.222 E43.7014
G1 X81.011 Y118.189 E43.71283
G1 X80.489 Y118.088 E43.73051
G1 X79.99 Y117.908 E43.74816
G1 X79.565 Y117.711 E43.76374
G1 X79.116 Y117.41 E43.78172
G1 X78.74 Y117.1 E43.79792
G1 X78.345 Y116.664 E43.81749
G1 X78.008 Y116.163 E43.83757
G1 X77.787 Y115.698 E43.8547
G1 X77.649 Y115.314 E43.86827
G1 X77.559 Y114.958 E43.88048
G1 X77.481 Y114.444 E43.89777
G1 X77.479 Y113.956 E43.91401
G1 X77.515 Y113.554 E43.92743
G1 X77.612 Y113.052 E43.94443
G1 X77.786 Y112.559 E43.96182
G1 X77.958 Y112.195 E43.97521
G1 X78.164 Y111.853 E43.98849
G1 X78.405 Y111.526 E44.002
G1 X78.674 Y111.228 E44.01536
G1 X78.974 Y110.957 E44.0288
G1 X79.32 Y110.704 E44.04306
G1 X79.668 Y110.497 E44.05653
G1 X80.116 Y110.29 E44.07294
G1 X80.577 Y110.15 E44.08896
G1 X80.972 Y110.072 E44.10236
G1 X81.373 Y110.032 E44.11576
G1 X81.777 Y110.032 E44.1292
G1 X82.149 Y110.068 E44.14163
G1 X82.573 Y110.15 E44.15599
G1 X82.931 Y110.258 E44.16843
G1 X83.328 Y110.42 E44.18269
G1 X83.758 Y110.651 E44.19892
G1 X84.149 Y110.935 E44.215
G1 X84.471 Y111.223 E44.22937
G1 X84.908 Y111.73 E44.25163
G1 X85.187 Y112.183 E44.26932
G1 X85.372 Y112.579 E44.28386
G1 X85.522 Y112.993 E44.29851
G1 X85.63 Y113.514 E44.3162
G1 X85.671 Y113.915 E44.32961
G1 X85.671 Y114.323 E44.34318
G1 X85.636 Y114.691 E44.35548
G1 X85.542 Y115.187 E44.37227
G1 X85.368 Y115.685 E44.38981
G1 X85.165 Y116.123 E44.40587
G1 X84.813 Y116.654 E44.42706
G1 X84.42 Y117.09 E44.44658
G1 X83.949 Y117.478 E44.46688
G1 X83.488 Y117.755 E44.48476
G1 X83.129 Y117.921 E44.49792
G1 X82.682 Y118.084 E44.51374
G1 X82.201 Y118.18 E44.53006
G1 X81.817 Y118.221 E44.5429
G0 F6000 X81.776 Y117.823
;TYPE:WALL-OUTER
G1 F1200 X81.391 Y117.824 E44.55571
G1 X81.049 Y117.791 E44.56714
G1 X80.581 Y117.698 E44.58301
G1 X80.158 Y117.545 E44.59797
G1 X79.763 Y117.361 E44.61246
G1 X79.386 Y117.112 E44.62749
G1 X79.016 Y116.81 E44.64337
G1 X78.661 Y116.419 E44.66094
G1 X78.347 Y115.949 E44.67974
G1 X78.153 Y115.536 E44.69491
G1 X78.035 Y115.209 E44.70648
G1 X77.944 Y114.842 E44.71905
G1 X77.879 Y114.405 E44.73375
G1 X77.879 Y113.956 E44.74868
G1 X77.913 Y113.594 E44.76077
G1 X78 Y113.149 E44.77586
G1 X78.152 Y112.721 E44.79096
G1 X78.315 Y112.375 E44.80368
G1 X78.504 Y112.065 E44.81576
G1 X78.721 Y111.771 E44.82791
G1 X78.964 Y111.504 E44.83992
G1 X79.235 Y111.26 E44.85205
G1 X79.528 Y111.046 E44.86412
G1 X79.838 Y110.859 E44.87616
G1 X80.232 Y110.674 E44.89063
G1 X80.684 Y110.536 E44.90635
G1 X81.041 Y110.466 E44.91845
G1 X81.383 Y110.432 E44.92988
G1 X81.767 Y110.432 E44.94266
G1 X82.109 Y110.466 E44.95409
G1 X82.486 Y110.541 E44.96687
G1 X82.824 Y110.644 E44.97862
G1 X83.166 Y110.786 E44.99094
G1 X83.568 Y111.004 E45.00615
G1 X83.928 Y111.27 E45.02104
G1 X84.196 Y111.514 E45.03309
G1 X84.599 Y111.984 E45.05369
G1 X84.841 Y112.384 E45.06923
G1 X84.996 Y112.715 E45.08139
G1 X85.142 Y113.118 E45.09565
G1 X85.235 Y113.583 E45.11142
G1 X85.271 Y113.928 E45.12296
G1 X85.271 Y114.312 E45.13573
G1 X85.238 Y114.653 E45.14712
G1 X85.154 Y115.088 E45.16186
G1 X84.994 Y115.543 E45.1779
G1 X84.811 Y115.937 E45.19235
G1 X84.503 Y116.402 E45.2109
G1 X84.143 Y116.801 E45.22877
G1 X83.717 Y117.152 E45.24713
G1 X83.318 Y117.393 E45.26264
G1 X83.007 Y117.539 E45.27406
G1 X82.575 Y117.697 E45.28936
G1 X82.118 Y117.788 E45.30486
G1 X81.776 Y117.823 E45.3163
G1 F1500 E38.8163
G0 F6000 X81.806 Y118.121
G0 X82.846 Y117.833
G0 X84.5 Y117.259
G0 X118.005 Y115.931
G0 X119.185 Y116.223
;TYPE:WALL-INNER
G1 F1500 E45.3163
G1 F1200 X118.609 Y116.079 E45.33604
G1 X118.163 Y115.83 E45.35303
G1 X117.903 Y115.603 E45.36451
G1 X117.591 Y115.21 E45.3812
G1 X117.307 Y114.523 E45.40593
G1 X117.307 Y113.979 E45.42402
G1 X117.315 Y113.875 E45.42749
G1 X117.453 Y113.339 E45.4459
G1 X117.705 Y112.879 E45.46334
G1 X118.082 Y112.486 E45.48146
G1 X118.605 Y112.173 E45.50173
G1 X118.83 Y112.093 E45.50967
G1 X119.305 Y112.027 E45.52562
G1 X119.77 Y112.05 E45.54111
G1 F1203 X119.986 Y112.101 E45.54847
G1 X120.604 Y112.374 E45.57088
G1 F1200 X121.039 Y112.804 E45.59123
G1 X121.342 Y113.312 E45.6109
G1 X121.482 Y113.809 E45.62808
G1 X121.493 Y114.255 E45.64291
G1 X121.442 Y114.646 E45.65603
G1 X121.214 Y115.203 E45.67605
G1 X120.892 Y115.613 E45.69339
G1 F1203 X120.564 Y115.874 E45.70729
G1 F1206 X120.204 Y116.067 E45.72081
G1 X119.719 Y116.21 E45.73754
G1 F1200 X119.185 Y116.223 E45.75531
G0 F6000 X119.229 Y115.822
;TYPE:WALL-OUTER
G1 F1200 X118.755 Y115.703 E45.77157
G1 X118.411 Y115.51 E45.78468
G1 X118.211 Y115.345 E45.79331
G1 X117.931 Y114.987 E45.80842
G1 X117.707 Y114.443 E45.82799
G1 X117.707 Y113.979 E45.84342
G1 X117.709 Y113.944 E45.84459
G1 X117.825 Y113.482 E45.86043
G1 X118.039 Y113.106 E45.87482
G1 X118.32 Y112.813 E45.88833
G1 X118.847 Y112.494 E45.90882
G1 X119.343 Y112.43 E45.92545
G1 F1203 X119.787 Y112.452 E45.9402
G1 X120.385 Y112.72 E45.96194
G1 X120.72 Y113.052 E45.97759
G1 F1200 X120.971 Y113.473 E45.99389
G1 X121.084 Y113.87 E46.00762
G1 X121.091 Y114.304 E46.02205
G1 X121.042 Y114.567 E46.03095
G1 X120.866 Y114.998 E46.04644
G1 X120.59 Y115.343 E46.06113
G1 X120.36 Y115.53 E46.07099
G1 X120.055 Y115.698 E46.08257
G1 X119.657 Y115.811 E46.09633
G1 X119.229 Y115.822 E46.11057
G0 F6000 X119.001 Y116.28
G0 X120.142 Y115.923
G0 X120.779 Y115.495
G0 X121.072 Y115.118
G0 X121.281 Y114.611
G0 X121.322 Y113.84
G0 X121.249 Y113.578
G0 X120.641 Y112.293
G0 X120.624 Y111.926
;TYPE:WALL-INNER
G1 F1194 X120.455 Y111.877 E46.11645
G1 F1203 X120.254 Y111.731 E46.1247
G1 X120.138 Y111.542 E46.13205
G1 F1200 X120.1 Y111.328 E46.13928
G1 X120.1 Y92.328 E46.77123
G1 X120.117 Y92.186 E46.77598
G1 X120.219 Y91.967 E46.78402
G1 X120.454 Y91.78 E46.79401
G1 X120.622 Y91.728 E46.79986
G1 X139.7 Y91.728 E47.43439
G1 X139.884 Y91.756 E47.44058
G1 X140.06 Y91.847 E47.44717
G1 X140.249 Y92.083 E47.45723
G1 X140.3 Y92.328 E47.46555
G1 X140.299 Y111.381 E48.09926
G1 X140.244 Y111.582 E48.10619
G1 X140.139 Y111.738 E48.11244
G1 X139.984 Y111.857 E48.11894
G1 X139.7 Y111.928 E48.12868
G1 F1194 X120.624 Y111.926 E48.76632
G0 F6000 X120.5 Y111.381
;TYPE:WALL-OUTER
G1 F1200 X120.5 Y92.328 E49.40003
G1 X120.539 Y92.207 E49.40426
G1 X120.665 Y92.13 E49.40917
G1 X139.735 Y92.13 E50.04344
G1 X139.82 Y92.167 E50.04652
G1 X139.9 Y92.267 E50.05078
G1 X139.9 Y111.346 E50.68535
G1 X139.847 Y111.465 E50.68968
G1 X139.737 Y111.528 E50.6939
G1 X120.651 Y111.523 E51.3287
G1 X120.5 Y111.381 E51.3356
G1 F1500 E44.8356
G0 F6000 X120.637 Y112.029
G0 X140.154 Y111.964
G0 X141.927 Y111.49
G0 X142.261 Y111.738
;TYPE:WALL-INNER
G1 F1500 E51.3356
G1 F1200 X142.156 Y111.582 E51.34185
G1 X142.101 Y111.381 E51.34878
G1 X142.1 Y92.328 E51.98249
G1 X142.151 Y92.083 E51.99081
G1 X142.252 Y91.928 E51.99696
G1 X142.489 Y91.765 E52.00653
G1 X142.626 Y91.728 E52.01125
G1 X161.779 Y91.728 E52.64828
G1 X161.957 Y91.785 E52.6545
G1 X162.109 Y91.888 E52.66061
G1 X162.251 Y92.088 E52.66876
G1 X162.299 Y92.287 E52.67557
G1 X162.298 Y111.387 E53.31084
G1 X162.197 Y111.667 E53.32074
G1 X162.095 Y111.78 E53.3258
G1 F1212.1 X161.797 Y111.92 E53.33665
G1 X161.401 Y111.929 E53.34969
G1 F1200 X142.647 Y111.926 E53.97345
G1 X142.416 Y111.857 E53.98147
G1 X142.261 Y111.738 E53.98797
G0 F6000 X142.627 Y111.528
;TYPE:WALL-OUTER
G1 F1200 X142.5 Y111.394 E53.99411
G1 X142.5 Y92.328 E54.62825
G1 X142.58 Y92.167 E54.63422
G1 X142.672 Y92.129 E54.63754
G1 X161.735 Y92.13 E55.27157
G1 X161.856 Y92.201 E55.27624
G1 X161.9 Y92.314 E55.28027
G1 X161.9 Y111.348 E55.91335
G1 X161.866 Y111.441 E55.91664
G1 X161.745 Y111.524 E55.92152
