;FLAVOR:Marlin
;TIME:21480
;Filament used: 17.8814m
;Layer height: 0.2
;MINX:30.491
;MINY:51.55
;MINZ:0.2
;MAXX:189.51
;MAXY:168.1
;MAXZ:19
;Generated with Cura_SteamEngine 5.2.1
M82 ;absolute extrusion mode
; Ender 3 Custom Start G-code
G92 E0 ; Reset Extruder
G28 ; Home all axes
M104 S175.0 ; Start heating up the nozzle most of the way
M190 S60.0 ; Start heating the bed, wait until target temperature reached
M109 S230.0 ; Finish heating the nozzle
G1 Z2.0 F3000 ; Move Z Axis up little to prevent scratching of Heat Bed
G1 X0.1 Y20 Z0.3 F5000.0 ; Move to start position
G1 X0.1 Y200.0 Z0.3 F1500.0 E15 ; Draw the first line
G1 X0.4 Y200.0 Z0.3 F5000.0 ; Move to side a little
G1 X0.4 Y20 Z0.3 F1500.0 E30 ; Draw the second line
G92 E0 ; Reset Extruder
G1 Z2.0 F3000 ; Move Z Axis up little to prevent scratching of Heat Bed
G1 X5 Y20 Z0.3 F5000.0 ; Move over to prevent blob squish
G92 E0
G92 E0
G1 F1500 E-6.5
;LAYER_COUNT:95
;LAYER:0
M107
G0 F6000 X37.168 Y53.676 Z0.2
;TYPE:SKIRT
G1 F1500 E0
G1 F1200 X37.983 Y53.211 E0.03121
G1 X38.562 Y52.935 E0.05254
G1 X39.364 Y52.586 E0.08163
G1 X39.669 Y52.463 E0.09257
G1 X40.553 Y52.15 E0.12376
G1 X41.46 Y51.913 E0.15494
G1 X42.023 Y51.807 E0.174
G1 X42.783 Y51.696 E0.19954
G1 X43.341 Y51.632 E0.21822
G1 X44.238 Y51.566 E0.24814
G1 X44.903 Y51.55 E0.27026
G1 X174.862 Y51.551 E4.59272
G1 X175.56 Y51.561 E4.61593
G1 X176.443 Y51.609 E4.64535
G1 X177.238 Y51.698 E4.67195
G1 X177.75 Y51.772 E4.68916
G1 X178.672 Y51.946 E4.72037
G1 X179.576 Y52.197 E4.75157
G1 X180.131 Y52.394 E4.77116
G1 X180.632 Y52.587 E4.78902
G1 X181.272 Y52.853 E4.81207
G1 X182.118 Y53.257 E4.84325
G1 X182.926 Y53.733 E4.87444
G1 X183.422 Y54.073 E4.89444
G1 X183.998 Y54.505 E4.91839
G1 X184.443 Y54.859 E4.9373
G1 X185.151 Y55.473 E4.96847
G1 X185.805 Y56.146 E4.99968
G1 X186.195 Y56.609 E5.01982
G1 X186.643 Y57.178 E5.0439
G1 X186.863 Y57.471 E5.05609
G1 X187.394 Y58.245 E5.08731
G1 X187.857 Y59.06 E5.11849
G1 X188.127 Y59.627 E5.13937
G1 X188.33 Y60.086 E5.15607
G1 X188.589 Y60.71 E5.17854
G1 X188.904 Y61.593 E5.20972
G1 X189.142 Y62.5 E5.24091
G1 X189.253 Y63.088 E5.26081
G1 X189.361 Y63.824 E5.28555
G1 X189.425 Y64.374 E5.30397
G1 X189.494 Y65.298 E5.33479
G1 X189.509 Y65.962 E5.35688
G1 X189.51 Y116.518 E7.03838
G1 X189.495 Y117.459 E7.06968
G1 X189.439 Y118.396 E7.1009
G1 X189.303 Y119.324 E7.13209
G1 X189.089 Y120.237 E7.16328
G1 X188.798 Y121.128 E7.19446
G1 X188.432 Y121.992 E7.22567
G1 X187.993 Y122.821 E7.25687
G1 X187.486 Y123.609 E7.28803
G1 X186.913 Y124.352 E7.31924
G1 X186.279 Y125.043 E7.35043
G1 X185.527 Y125.73 E7.38431
G1 X184.918 Y126.236 E7.41064
G1 X183.978 Y126.993 E7.45078
G1 X182.039 Y128.645 E7.53551
G1 X180.189 Y130.312 E7.61834
G1 X178.346 Y132.071 E7.70307
G1 X176.792 Y133.631 E7.77631
G1 X176.103 Y134.267 E7.8075
G1 X175.361 Y134.841 E7.8387
G1 X174.574 Y135.35 E7.86987
G1 X173.746 Y135.791 E7.90107
G1 X172.939 Y136.138 E7.93029
G1 X171.951 Y136.515 E7.96546
G1 X87.505 Y167.249 E10.95438
G1 X86.829 Y167.485 E10.9782
G1 X85.931 Y167.756 E11.00939
G1 X85.013 Y167.95 E11.0406
G1 X84.082 Y168.065 E11.0718
G1 X83.145 Y168.1 E11.10299
G1 X82.225 Y168.056 E11.13362
G1 X81.451 Y167.986 E11.15947
G1 X80.039 Y167.839 E11.20669
G1 X77.508 Y167.648 E11.29111
G1 X75.001 Y167.531 E11.37458
G1 X72.471 Y167.484 E11.45874
G1 X70.713 Y167.484 E11.51722
G1 X69.777 Y167.44 E11.54838
G1 X68.847 Y167.316 E11.57959
G1 X67.931 Y167.114 E11.61079
G1 X67.036 Y166.834 E11.64198
G1 X66.168 Y166.479 E11.67317
G1 X65.333 Y166.052 E11.70436
G1 X64.538 Y165.554 E11.73556
G1 X63.788 Y164.991 E11.76675
G1 X63.089 Y164.366 E11.79794
G1 X62.445 Y163.684 E11.82914
G1 X61.862 Y162.95 E11.86032
G1 X61.33 Y162.146 E11.89238
G1 X60.941 Y161.495 E11.9176
G1 X55.99 Y152.918 E12.24699
G1 X54.676 Y150.715 E12.33231
G1 X53.31 Y148.564 E12.41706
G1 X51.9 Y146.477 E12.50083
G1 X50.445 Y144.45 E12.58382
G1 X48.907 Y142.431 E12.66823
G1 X47.345 Y140.496 E12.75095
G1 X45.694 Y138.563 E12.8355
G1 X44.017 Y136.71 E12.91862
G1 X42.263 Y134.881 E13.0029
G1 X40.474 Y133.116 E13.08649
G1 X38.62 Y131.386 E13.17083
G1 X36.776 Y129.764 E13.25251
G1 X34.946 Y128.251 E13.33149
G1 X34.365 Y127.756 E13.35687
G1 X33.679 Y127.117 E13.38806
G1 X33.05 Y126.422 E13.41923
G1 X32.482 Y125.675 E13.45045
G1 X31.98 Y124.883 E13.48163
G1 X31.547 Y124.051 E13.51283
G1 X31.187 Y123.185 E13.54402
G1 X30.901 Y122.292 E13.57521
G1 X30.693 Y121.377 E13.60642
G1 X30.564 Y120.448 E13.63761
G1 X30.515 Y119.602 E13.6658
G1 X30.494 Y118.386 E13.70625
G1 X30.491 Y66.192 E15.44223
G1 X30.502 Y65.462 E15.46651
G1 X30.558 Y64.514 E15.4981
G1 X30.635 Y63.846 E15.52046
G1 X30.71 Y63.321 E15.5381
G1 X30.882 Y62.399 E15.5693
G1 X31.132 Y61.495 E15.60049
G1 X31.348 Y60.887 E15.62195
G1 X31.529 Y60.422 E15.63855
G1 X31.812 Y59.748 E15.66286
G1 X32.219 Y58.904 E15.69403
G1 X32.697 Y58.097 E15.72522
G1 X33.022 Y57.626 E15.74426
G1 X33.438 Y57.07 E15.76735
G1 X33.787 Y56.63 E15.78603
G1 X34.4 Y55.921 E15.8172
G1 X35.072 Y55.267 E15.84839
G1 X35.556 Y54.858 E15.86947
G1 X35.874 Y54.605 E15.88298
G1 X36.396 Y54.207 E15.90482
G1 X37.168 Y53.676 E15.93598
G0 F6000 X37.395 Y54.005
G1 F1200 X38.196 Y53.552 E15.96659
G1 X38.724 Y53.301 E15.98603
G1 X39.513 Y52.957 E16.01466
G1 X39.818 Y52.834 E16.0256
G1 X40.686 Y52.527 E16.05622
G1 X41.578 Y52.297 E16.08686
G1 X42.087 Y52.202 E16.10408
G1 X42.828 Y52.093 E16.12899
G1 X43.386 Y52.029 E16.14767
G1 X44.251 Y51.966 E16.17652
G1 X44.903 Y51.95 E16.19821
G1 X174.856 Y51.951 E20.52047
G1 X175.554 Y51.961 E20.54368
G1 X176.405 Y52.008 E20.57203
G1 X177.181 Y52.094 E20.598
G1 X177.693 Y52.168 E20.6152
G1 X178.598 Y52.339 E20.64584
G1 X179.484 Y52.588 E20.67645
G1 X179.987 Y52.768 E20.69422
G1 X180.488 Y52.961 E20.71207
G1 X181.115 Y53.221 E20.73465
G1 X181.945 Y53.619 E20.76527
G1 X182.737 Y54.087 E20.79586
G1 X183.187 Y54.396 E20.81402
G1 X183.749 Y54.818 E20.83739
G1 X184.194 Y55.172 E20.85631
G1 X184.889 Y55.776 E20.88693
G1 X185.529 Y56.437 E20.91753
G1 X185.882 Y56.858 E20.93581
G1 X186.324 Y57.418 E20.95954
G1 X186.544 Y57.711 E20.97172
G1 X187.064 Y58.471 E21.00235
G1 X187.516 Y59.273 E21.03297
G1 X187.761 Y59.789 E21.05197
G1 X187.964 Y60.248 E21.06866
G1 X188.218 Y60.86 E21.0907
G1 X188.526 Y61.727 E21.1213
G1 X188.758 Y62.618 E21.15192
G1 X188.859 Y63.152 E21.17
G1 X188.964 Y63.87 E21.19414
G1 X189.028 Y64.42 E21.21255
G1 X189.094 Y65.311 E21.24227
G1 X189.109 Y65.962 E21.26393
G1 X189.11 Y116.518 E22.94543
G1 X189.095 Y117.452 E22.97649
G1 X189.04 Y118.371 E23.00711
G1 X188.904 Y119.282 E23.03775
G1 X188.69 Y120.178 E23.06839
G1 X188.399 Y121.051 E23.099
G1 X188.034 Y121.896 E23.12961
G1 X187.596 Y122.706 E23.16024
G1 X187.09 Y123.475 E23.19086
G1 X186.519 Y124.197 E23.22147
G1 X185.888 Y124.867 E23.25208
G1 X185.271 Y125.422 E23.27969
G1 X184.529 Y126.037 E23.31174
G1 X183.71 Y126.695 E23.34668
G1 X181.777 Y128.342 E23.43115
G1 X179.928 Y130.009 E23.51395
G1 X178.07 Y131.783 E23.59939
G1 X176.509 Y133.349 E23.67293
G1 X175.831 Y133.972 E23.70356
G1 X175.102 Y134.534 E23.73417
G1 X174.327 Y135.031 E23.76479
G1 X173.512 Y135.459 E23.79541
G1 X172.795 Y135.764 E23.82133
G1 X171.814 Y136.139 E23.85626
G1 X87.373 Y166.872 E26.84501
G1 X86.697 Y167.108 E26.86882
G1 X85.815 Y167.373 E26.89946
G1 X84.914 Y167.561 E26.93007
G1 X84 Y167.67 E26.96068
G1 X83.08 Y167.699 E26.9913
G1 X82.26 Y167.658 E27.01861
G1 X81.644 Y167.603 E27.03917
G1 X80.077 Y167.441 E27.09157
G1 X77.522 Y167.248 E27.17679
G1 X75.026 Y167.131 E27.2599
G1 X72.474 Y167.084 E27.3448
G1 X70.715 Y167.084 E27.4033
G1 X69.796 Y167.04 E27.4339
G1 X68.883 Y166.916 E27.46455
G1 X67.985 Y166.714 E27.49516
G1 X67.108 Y166.435 E27.52577
G1 X66.258 Y166.08 E27.55641
G1 X65.443 Y165.653 E27.58701
G1 X64.667 Y165.157 E27.61764
G1 X63.937 Y164.596 E27.64826
G1 X63.259 Y163.973 E27.67889
G1 X62.638 Y163.294 E27.70949
G1 X62.077 Y162.563 E27.74014
G1 X61.673 Y161.94 E27.76484
G1 X61.38 Y161.452 E27.78377
G1 X56.337 Y152.718 E28.11921
G1 X55.014 Y150.501 E28.20508
G1 X53.647 Y148.347 E28.28993
G1 X52.24 Y146.266 E28.37348
G1 X50.772 Y144.22 E28.45723
G1 X49.22 Y142.183 E28.54241
G1 X47.645 Y140.23 E28.62586
G1 X45.994 Y138.298 E28.71038
G1 X44.303 Y136.43 E28.79419
G1 X42.567 Y134.62 E28.8776
G1 X40.727 Y132.804 E28.96359
G1 X38.911 Y131.11 E29.04619
G1 X37.011 Y129.438 E29.13037
G1 X35.066 Y127.829 E29.21432
G1 X34.625 Y127.452 E29.23362
G1 X33.952 Y126.824 E29.26424
G1 X33.336 Y126.14 E29.29485
G1 X32.781 Y125.405 E29.32549
G1 X32.293 Y124.625 E29.35609
G1 X31.874 Y123.805 E29.38672
G1 X31.528 Y122.952 E29.41733
G1 X31.257 Y122.072 E29.44796
G1 X31.063 Y121.172 E29.47858
G1 X30.948 Y120.258 E29.50922
G1 X30.915 Y119.594 E29.53133
G1 X30.894 Y118.386 E29.57151
G1 X30.891 Y66.198 E31.30729
G1 X30.902 Y65.468 E31.33158
G1 X30.955 Y64.555 E31.36199
G1 X31.031 Y63.903 E31.38383
G1 X31.106 Y63.378 E31.40147
G1 X31.275 Y62.473 E31.43209
G1 X31.523 Y61.586 E31.46272
G1 X31.721 Y61.032 E31.48229
G1 X31.902 Y60.567 E31.49888
G1 X32.179 Y59.907 E31.52269
G1 X32.58 Y59.078 E31.55332
G1 X33.051 Y58.287 E31.58394
G1 X33.345 Y57.861 E31.60115
G1 X33.751 Y57.319 E31.62368
G1 X34.1 Y56.879 E31.64236
G1 X34.703 Y56.183 E31.67299
G1 X35.364 Y55.542 E31.70361
G1 X35.806 Y55.171 E31.7228
G1 X36.344 Y54.747 E31.74559
G1 X36.636 Y54.527 E31.75775
G1 X37.395 Y54.005 E31.78839
G0 F6000 X37.622 Y54.335
G1 F1200 X38.409 Y53.892 E31.81842
G1 X38.885 Y53.666 E31.83595
G1 X39.348 Y53.461 E31.85279
G1 X39.968 Y53.205 E31.8751
G1 X40.82 Y52.905 E31.90514
G1 X41.695 Y52.681 E31.93518
G1 X42.151 Y52.596 E31.95061
G1 X42.874 Y52.49 E31.97492
G1 X43.432 Y52.426 E31.9936
G1 X44.264 Y52.365 E32.02134
G1 X44.903 Y52.35 E32.0426
G1 X174.85 Y52.351 E36.36466
G1 X175.548 Y52.361 E36.38788
G1 X176.367 Y52.406 E36.41516
G1 X177.124 Y52.49 E36.44049
G1 X177.636 Y52.564 E36.4577
G1 X178.523 Y52.733 E36.48773
G1 X179.392 Y52.979 E36.51777
G1 X179.844 Y53.141 E36.53374
G1 X180.345 Y53.334 E36.55159
G1 X180.958 Y53.588 E36.57366
G1 X181.772 Y53.979 E36.6037
G1 X182.548 Y54.441 E36.63374
G1 X182.951 Y54.72 E36.65004
G1 X183.5 Y55.131 E36.67285
G1 X183.945 Y55.485 E36.69176
G1 X184.626 Y56.078 E36.72179
G1 X185.252 Y56.729 E36.75183
G1 X185.57 Y57.107 E36.76826
G1 X185.822 Y57.423 E36.78171
G1 X186.224 Y57.952 E36.8038
G1 X186.733 Y58.697 E36.83381
G1 X187.175 Y59.485 E36.86387
G1 X187.395 Y59.95 E36.88097
G1 X187.598 Y60.409 E36.89767
G1 X187.847 Y61.01 E36.9193
G1 X188.149 Y61.861 E36.94934
G1 X188.374 Y62.736 E36.97939
G1 X188.464 Y63.216 E36.99563
G1 X188.567 Y63.916 E37.01916
G1 X188.631 Y64.466 E37.03758
G1 X188.694 Y65.323 E37.06616
G1 X188.709 Y65.962 E37.08742
G1 X188.71 Y116.518 E38.76892
G1 X188.695 Y117.446 E38.79979
G1 X188.64 Y118.347 E38.82981
G1 X188.505 Y119.24 E38.85985
G1 X188.291 Y120.117 E38.88988
G1 X188.001 Y120.973 E38.91994
G1 X187.636 Y121.799 E38.94997
G1 X187.2 Y122.589 E38.97998
G1 X186.695 Y123.338 E39.01003
G1 X186.126 Y124.04 E39.04008
G1 X185.497 Y124.688 E39.07012
G1 X185.015 Y125.114 E39.09152
G1 X184.279 Y125.725 E39.12333
G1 X183.449 Y126.392 E39.15875
G1 X181.531 Y128.026 E39.24255
G1 X179.631 Y129.739 E39.32764
G1 X177.793 Y131.493 E39.41214
G1 X176.226 Y133.066 E39.48599
G1 X175.56 Y133.677 E39.51605
G1 X174.844 Y134.227 E39.54608
G1 X174.081 Y134.711 E39.57613
G1 X173.279 Y135.126 E39.60616
G1 X172.652 Y135.391 E39.6288
G1 X171.678 Y135.763 E39.66348
G1 X87.241 Y166.494 E42.65209
G1 X86.565 Y166.73 E42.6759
G1 X85.7 Y166.99 E42.70594
G1 X84.815 Y167.172 E42.73599
G1 X83.918 Y167.275 E42.76602
G1 X83.015 Y167.298 E42.79607
G1 X82.296 Y167.26 E42.82001
G1 X81.68 Y167.205 E42.84058
G1 X80.112 Y167.042 E42.89302
G1 X77.57 Y166.85 E42.9778
G1 X75.017 Y166.731 E43.06281
G1 X72.513 Y166.684 E43.14611
G1 X70.717 Y166.684 E43.20584
G1 X69.815 Y166.64 E43.23588
G1 X68.92 Y166.517 E43.26593
G1 X68.04 Y166.314 E43.29596
G1 X67.181 Y166.035 E43.326
G1 X66.35 Y165.681 E43.35605
G1 X65.554 Y165.255 E43.38608
G1 X64.799 Y164.76 E43.4161
G1 X64.09 Y164.2 E43.44615
G1 X63.434 Y163.58 E43.47617
G1 X62.835 Y162.904 E43.50621
G1 X62.298 Y162.178 E43.53625
G1 X62.016 Y161.734 E43.55374
G1 X61.634 Y161.095 E43.5785
G1 X56.702 Y152.55 E43.90666
G1 X55.336 Y150.261 E43.99531
G1 X53.989 Y148.139 E44.07891
G1 X52.564 Y146.031 E44.16354
G1 X51.071 Y143.95 E44.24872
G1 X49.565 Y141.974 E44.33136
G1 X47.927 Y139.943 E44.41814
G1 X46.313 Y138.054 E44.50078
G1 X44.604 Y136.167 E44.58546
G1 X42.837 Y134.323 E44.6704
G1 X41.034 Y132.544 E44.75465
G1 X39.164 Y130.801 E44.83967
G1 X37.265 Y129.129 E44.92382
G1 X35.326 Y127.525 E45.00752
G1 X34.885 Y127.148 E45.02682
G1 X34.225 Y126.531 E45.05687
G1 X33.623 Y125.859 E45.08688
G1 X33.082 Y125.136 E45.11691
G1 X32.607 Y124.367 E45.14697
G1 X32.202 Y123.56 E45.17701
G1 X31.87 Y122.72 E45.20705
G1 X31.614 Y121.854 E45.23708
G1 X31.435 Y120.969 E45.26711
G1 X31.335 Y120.071 E45.29717
G1 X31.315 Y119.587 E45.31328
G1 X31.294 Y118.386 E45.35323
G1 X31.291 Y66.204 E47.08881
G1 X31.302 Y65.474 E47.11309
G1 X31.353 Y64.595 E47.14238
G1 X31.427 Y63.96 E47.16364
G1 X31.502 Y63.435 E47.18128
G1 X31.669 Y62.547 E47.21133
G1 X31.914 Y61.678 E47.24136
G1 X32.094 Y61.177 E47.25907
G1 X32.275 Y60.712 E47.27566
G1 X32.547 Y60.065 E47.29901
G1 X32.94 Y59.252 E47.32904
G1 X33.404 Y58.477 E47.35908
G1 X33.669 Y58.097 E47.37449
G1 X34.065 Y57.567 E47.3965
G1 X34.414 Y57.127 E47.41518
G1 X35.006 Y56.445 E47.44521
G1 X35.656 Y55.818 E47.47525
G1 X36.055 Y55.484 E47.49256
G1 X36.585 Y55.066 E47.51501
G1 X36.877 Y54.846 E47.52717
G1 X37.622 Y54.335 E47.55722
G1 F1500 E41.05722
;MESH:Skiff-left-end.stl
G0 F6000 X92.556 Y130.304
G0 X94.148 Y133.738
;TYPE:WALL-INNER
G1 F1500 E47.55722
G1 F1200 X93.707 Y133.799 E47.57202
G1 X93.282 Y133.732 E47.58633
G1 X92.775 Y133.477 E47.60521
G1 X92.358 Y132.978 E47.62684
G1 X92.026 Y132.139 E47.65685
G1 X91.982 Y131.764 E47.66941
G1 X91.981 Y131.64 E47.67353
G1 X92.032 Y131.297 E47.68507
G1 X92.195 Y130.929 E47.69845
G1 X92.434 Y130.618 E47.7115
G1 X92.81 Y130.343 E47.72699
G1 X102.329 Y126.588 E48.06734
G1 X102.777 Y126.538 E48.08233
G1 X103.17 Y126.598 E48.09555
G1 X103.538 Y126.762 E48.10895
G1 X103.836 Y126.991 E48.12145
G1 X104.107 Y127.345 E48.13628
G1 X104.435 Y128.181 E48.16615
G1 X104.499 Y128.637 E48.18147
G1 X104.435 Y129.057 E48.1956
G1 X104.183 Y129.555 E48.21416
G1 X103.885 Y129.847 E48.22804
G1 X103.551 Y130.034 E48.24077
G1 X94.148 Y133.738 E48.5769
G0 F6000 X93.707 Y133.395
;TYPE:WALL-OUTER
G1 F1200 X93.399 Y133.344 E48.58729
G1 X93.026 Y133.152 E48.60124
G1 X92.707 Y132.775 E48.61767
G1 X92.414 Y132.02 E48.6446
G1 X92.379 Y131.677 E48.65607
G1 X92.426 Y131.391 E48.66571
G1 X92.545 Y131.123 E48.67546
G1 X92.713 Y130.911 E48.68446
G1 X93.007 Y130.695 E48.69659
G1 X102.437 Y126.978 E49.03372
G1 X102.745 Y126.942 E49.04404
G1 X103.049 Y126.983 E49.05424
G1 X103.32 Y127.098 E49.06403
G1 X103.549 Y127.275 E49.07366
G1 X103.759 Y127.555 E49.0853
G1 X104.049 Y128.286 E49.11145
G1 X104.092 Y128.613 E49.12242
G1 X104.052 Y128.93 E49.13305
G1 X103.854 Y129.314 E49.14742
G1 X103.653 Y129.515 E49.15687
G1 X103.378 Y129.673 E49.16742
G1 X94.051 Y133.352 E49.5009
G1 X93.707 Y133.395 E49.51243
G1 F1500 E43.01243
G0 F6000 X93.536 Y133.875
G0 X94.223 Y133.904
G0 X94.976 Y135.815
G0 X96.105 Y139.434
;TYPE:WALL-INNER
G1 F1500 E49.51243
G1 F1200 X95.539 Y139.389 E49.53132
G1 X94.991 Y139.115 E49.55169
G1 X94.585 Y138.621 E49.57296
G1 X94.356 Y138.044 E49.59361
G1 F1069 X94.202 Y137.789 E49.60473
G1 F902.3 X94.139 Y137.696 E49.6097
G1 F848.1 X94.127 Y137.33 E49.62693
G1 F991.7 X94.25 Y137.014 E49.64058
G1 F1200 X94.407 Y136.579 E49.65596
G1 X94.665 Y136.262 E49.66956
G1 X95.024 Y135.99 E49.68454
G1 X104.575 Y132.225 E50.026
G1 X105.005 Y132.18 E50.04038
G1 X105.412 Y132.24 E50.05406
G1 X105.935 Y132.511 E50.07365
G1 X106.33 Y132.983 E50.09412
G1 X106.663 Y133.821 E50.12411
G1 X106.721 Y134.266 E50.13904
G1 X106.665 Y134.687 E50.15317
G1 X106.414 Y135.184 E50.17168
G1 X106.108 Y135.491 E50.1861
G1 X105.75 Y135.687 E50.19968
G1 X96.493 Y139.337 E50.53063
G1 X96.105 Y139.434 E50.54394
G0 F6000 X96.093 Y139.027
;TYPE:WALL-OUTER
