;FLAVOR:Marlin
;TIME:21170
;Filament used: 17.7665m
;Layer height: 0.2
;MINX:30.449
;MINY:51.874
;MINZ:0.2
;MAXX:189.55
;MAXY:168.478
;MAXZ:15.2
;Generated with Cura_SteamEngine 5.2.1
M82 ;absolute extrusion mode
; Ender 3 Custom Start G-code
G92 E0 ; Reset Extruder
G28 ; Home all axes
M104 S175.0 ; Start heating up the nozzle most of the way
M190 S60.0 ; Start heating the bed, wait until target temperature reached
M109 S230.0 ; Finish heating the nozzle
G1 Z2.0 F3000 ; Move Z Axis up little to prevent scratching of Heat Bed
G1 X0.1 Y20 Z0.3 F5000.0 ; Move to start position
G1 X0.1 Y200.0 Z0.3 F1500.0 E15 ; Draw the first line
G1 X0.4 Y200.0 Z0.3 F5000.0 ; Move to side a little
G1 X0.4 Y20 Z0.3 F1500.0 E30 ; Draw the second line
G92 E0 ; Reset Extruder
G1 Z2.0 F3000 ; Move Z Axis up little to prevent scratching of Heat Bed
G1 X5 Y20 Z0.3 F5000.0 ; Move over to prevent blob squish
G92 E0
G92 E0
G1 F1500 E-6.5
;LAYER_COUNT:76
;LAYER:0
M107
G0 F6000 X62.381 Y56.339 Z0.2
;TYPE:SKIRT
G1 F1500 E0
G1 F1200 X63.021 Y55.653 E0.0312
G1 X63.717 Y55.025 E0.06238
G1 X64.464 Y54.458 E0.09358
G1 X65.257 Y53.957 E0.12477
G1 X66.089 Y53.525 E0.15595
G1 X66.955 Y53.165 E0.18715
G1 X67.849 Y52.881 E0.21835
G1 X68.764 Y52.674 E0.24955
G1 X69.693 Y52.545 E0.28074
G1 X70.696 Y52.496 E0.31414
G1 X73.441 Y52.487 E0.40544
G1 X75.965 Y52.408 E0.48943
G1 X78.479 Y52.258 E0.5732
G1 X81.095 Y52.028 E0.66054
G1 X82.047 Y51.93 E0.69237
G1 X82.983 Y51.874 E0.72356
G1 X83.921 Y51.897 E0.75477
G1 X84.853 Y52.001 E0.78596
G1 X85.773 Y52.183 E0.81715
G1 X86.758 Y52.472 E0.85129
G1 X87.766 Y52.821 E0.88677
G1 X172.324 Y83.599 E3.87969
G1 X172.966 Y83.845 E3.90256
G1 X173.827 Y84.218 E3.93377
G1 X174.652 Y84.662 E3.96493
G1 X175.437 Y85.176 E3.99614
G1 X176.176 Y85.754 E4.02734
G1 X176.824 Y86.355 E4.05674
G1 X177.715 Y87.25 E4.09874
G1 X179.573 Y89.063 E4.18508
G1 X181.439 Y90.786 E4.26956
G1 X183.304 Y92.41 E4.35181
G1 X185.508 Y94.219 E4.44664
G1 X186.206 Y94.844 E4.47781
G1 X186.85 Y95.527 E4.50903
G1 X187.432 Y96.262 E4.54021
G1 X187.95 Y97.044 E4.57141
G1 X188.399 Y97.867 E4.60259
G1 X188.777 Y98.726 E4.63381
G1 X189.08 Y99.613 E4.66498
G1 X189.306 Y100.523 E4.69617
G1 X189.454 Y101.45 E4.72739
G1 X189.526 Y102.508 E4.76266
G1 X189.547 Y103.699 E4.80228
G1 X189.55 Y153.809 E6.46895
G1 X189.539 Y154.557 E6.49383
G1 X189.484 Y155.499 E6.52521
G1 X189.408 Y156.167 E6.54757
G1 X189.334 Y156.689 E6.56511
G1 X189.163 Y157.611 E6.5963
G1 X188.914 Y158.515 E6.62748
G1 X188.692 Y159.139 E6.64951
G1 X188.503 Y159.624 E6.66682
G1 X188.236 Y160.263 E6.68986
G1 X187.83 Y161.109 E6.72107
G1 X187.353 Y161.916 E6.75225
G1 X187.021 Y162.399 E6.77174
G1 X186.595 Y162.968 E6.79538
G1 X186.252 Y163.4 E6.81373
G1 X185.638 Y164.109 E6.84492
G1 X184.966 Y164.763 E6.87611
G1 X184.48 Y165.173 E6.89726
G1 X184.154 Y165.432 E6.91111
G1 X183.627 Y165.832 E6.93311
G1 X182.854 Y166.363 E6.96431
G1 X182.038 Y166.826 E6.99551
G1 X181.467 Y167.098 E7.01655
G1 X180.978 Y167.314 E7.03433
G1 X180.413 Y167.549 E7.05468
G1 X179.53 Y167.866 E7.08588
G1 X178.624 Y168.106 E7.11706
G1 X178.05 Y168.216 E7.1365
G1 X177.26 Y168.332 E7.16305
G1 X176.69 Y168.397 E7.18213
G1 X175.801 Y168.462 E7.21178
G1 X175.136 Y168.478 E7.23391
G1 X45.099 Y168.477 E11.55895
G1 X44.401 Y168.467 E11.58217
G1 X43.518 Y168.419 E11.61158
G1 X42.726 Y168.33 E11.63809
G1 X42.213 Y168.256 E11.65533
G1 X41.291 Y168.083 E11.68653
G1 X40.387 Y167.832 E11.71774
G1 X39.822 Y167.631 E11.73768
G1 X39.335 Y167.443 E11.75505
G1 X38.712 Y167.185 E11.77747
G1 X37.865 Y166.782 E11.80867
G1 X37.056 Y166.309 E11.83984
G1 X36.58 Y165.984 E11.85901
G1 X35.962 Y165.524 E11.88463
G1 X35.523 Y165.175 E11.90329
G1 X34.814 Y164.56 E11.9345
G1 X34.16 Y163.888 E11.96569
G1 X33.766 Y163.419 E11.98606
G1 X33.32 Y162.853 E12.01003
G1 X33.101 Y162.562 E12.02215
G1 X32.569 Y161.79 E12.05333
G1 X32.106 Y160.975 E12.0845
G1 X31.826 Y160.389 E12.10611
G1 X31.627 Y159.938 E12.1225
G1 X31.365 Y159.304 E12.14532
G1 X31.052 Y158.42 E12.17651
G1 X30.814 Y157.513 E12.2077
G1 X30.705 Y156.937 E12.22719
G1 X30.596 Y156.188 E12.25237
G1 X30.531 Y155.62 E12.27138
G1 X30.465 Y154.709 E12.30176
G1 X30.45 Y154.046 E12.32382
G1 X30.449 Y101.324 E14.07736
G1 X30.463 Y100.418 E14.1075
G1 X30.518 Y99.481 E14.13872
G1 X30.653 Y98.553 E14.16991
G1 X30.867 Y97.64 E14.2011
G1 X31.157 Y96.748 E14.23229
G1 X31.523 Y95.885 E14.26347
G1 X31.961 Y95.055 E14.29469
G1 X32.467 Y94.266 E14.32586
G1 X33.04 Y93.523 E14.35707
G1 X33.673 Y92.832 E14.38824
G1 X34.45 Y92.124 E14.4232
G1 X35.387 Y91.349 E14.46364
G1 X37.388 Y89.652 E14.55091
G1 X39.262 Y87.969 E14.63468
G1 X41.081 Y86.24 E14.71815
G1 X42.856 Y84.455 E14.80188
G1 X44.577 Y82.622 E14.88551
G1 X46.252 Y80.734 E14.96945
G1 X47.871 Y78.803 E15.05326
G1 X49.428 Y76.835 E15.13673
G1 X50.94 Y74.809 E15.22081
G1 X52.394 Y72.741 E15.30489
G1 X53.768 Y70.665 E15.38769
G1 X55.119 Y68.491 E15.47282
G1 X55.95 Y67.081 E15.52726
G1 X60.91 Y58.493 E15.85711
G1 X61.287 Y57.861 E15.88159
G1 X61.801 Y57.077 E15.91277
G1 X62.381 Y56.339 E15.94399
G0 F6000 X62.707 Y56.574
G1 F1200 X63.338 Y55.903 E15.97463
G1 X64.024 Y55.29 E16.00522
G1 X64.762 Y54.739 E16.03586
G1 X65.544 Y54.253 E16.06648
G1 X66.366 Y53.838 E16.09711
G1 X67.22 Y53.495 E16.12772
G1 X68.101 Y53.228 E16.15834
G1 X69.002 Y53.038 E16.18896
G1 X69.916 Y52.928 E16.21958
G1 X70.698 Y52.896 E16.24561
G1 X73.454 Y52.887 E16.33728
G1 X76 Y52.807 E16.422
G1 X78.504 Y52.658 E16.50543
G1 X81.105 Y52.429 E16.59227
G1 X82.088 Y52.328 E16.62514
G1 X83.007 Y52.273 E16.65576
G1 X83.927 Y52.299 E16.68637
G1 X84.842 Y52.404 E16.71701
G1 X85.744 Y52.588 E16.74762
G1 X86.627 Y52.85 E16.77826
G1 X87.629 Y53.197 E16.81353
G1 X172.181 Y83.973 E19.80624
G1 X172.823 Y84.219 E19.8291
G1 X173.667 Y84.585 E19.8597
G1 X174.477 Y85.024 E19.89035
G1 X175.245 Y85.531 E19.92095
G1 X175.967 Y86.102 E19.95157
G1 X176.541 Y86.637 E19.97767
G1 X177.435 Y87.535 E20.01981
G1 X179.323 Y89.377 E20.10754
G1 X181.151 Y91.065 E20.1903
G1 X183.053 Y92.721 E20.27418
G1 X185.254 Y94.528 E20.36889
G1 X185.939 Y95.143 E20.39951
G1 X186.569 Y95.814 E20.43013
G1 X187.138 Y96.538 E20.46075
G1 X187.642 Y97.309 E20.49139
G1 X188.077 Y98.12 E20.522
G1 X188.441 Y98.966 E20.55263
G1 X188.729 Y99.84 E20.58324
G1 X188.94 Y100.736 E20.61385
G1 X189.073 Y101.647 E20.64447
G1 X189.126 Y102.515 E20.6734
G1 X189.147 Y103.699 E20.71278
G1 X189.15 Y153.803 E22.37925
G1 X189.139 Y154.551 E22.40413
G1 X189.086 Y155.459 E22.43438
G1 X189.012 Y156.111 E22.45621
G1 X188.938 Y156.633 E22.47374
G1 X188.769 Y157.538 E22.50436
G1 X188.523 Y158.425 E22.53498
G1 X188.32 Y158.994 E22.55507
G1 X188.131 Y159.479 E22.57239
G1 X187.868 Y160.106 E22.595
G1 X187.469 Y160.935 E22.6256
G1 X186.999 Y161.727 E22.65623
G1 X186.698 Y162.163 E22.67385
G1 X186.282 Y162.719 E22.69695
G1 X185.939 Y163.151 E22.71529
G1 X185.335 Y163.847 E22.74595
G1 X184.674 Y164.487 E22.77655
G1 X184.231 Y164.86 E22.79581
G1 X183.905 Y165.119 E22.80966
G1 X183.387 Y165.512 E22.83128
G1 X182.627 Y166.033 E22.86193
G1 X181.825 Y166.485 E22.89255
G1 X181.305 Y166.732 E22.9117
G1 X180.816 Y166.948 E22.92948
G1 X180.262 Y167.179 E22.94944
G1 X179.395 Y167.489 E22.98006
G1 X178.505 Y167.722 E23.01066
G1 X177.985 Y167.821 E23.02827
G1 X177.215 Y167.935 E23.05416
G1 X176.645 Y168 E23.07324
G1 X175.788 Y168.062 E23.10182
G1 X175.136 Y168.078 E23.12351
G1 X45.105 Y168.077 E27.44836
G1 X44.407 Y168.067 E27.47158
G1 X43.556 Y168.02 E27.49993
G1 X42.783 Y167.934 E27.52579
G1 X42.27 Y167.86 E27.54303
G1 X41.365 Y167.69 E27.57366
G1 X40.479 Y167.441 E27.60427
G1 X39.966 Y167.258 E27.62239
G1 X39.479 Y167.07 E27.63975
G1 X38.869 Y166.817 E27.66171
G1 X38.038 Y166.421 E27.69233
G1 X37.244 Y165.954 E27.72297
G1 X36.61 Y165.513 E27.74865
G1 X36.211 Y165.21 E27.76532
G1 X35.772 Y164.861 E27.78397
G1 X35.077 Y164.258 E27.81457
G1 X34.436 Y163.596 E27.84522
G1 X34.078 Y163.17 E27.86373
G1 X33.639 Y162.613 E27.88732
G1 X33.42 Y162.322 E27.89943
G1 X32.899 Y161.563 E27.93005
G1 X32.446 Y160.762 E27.96066
G1 X32.192 Y160.227 E27.98036
G1 X31.993 Y159.776 E27.99675
G1 X31.736 Y159.154 E28.01914
G1 X31.429 Y158.286 E28.04976
G1 X31.198 Y157.395 E28.08037
G1 X31.1 Y156.873 E28.09804
G1 X30.994 Y156.142 E28.12261
G1 X30.929 Y155.574 E28.14162
G1 X30.865 Y154.697 E28.17087
G1 X30.85 Y154.046 E28.19253
G1 X30.85 Y101.148 E29.95192
G1 X30.862 Y100.424 E29.976
G1 X30.918 Y99.505 E30.00663
G1 X31.052 Y98.595 E30.03722
G1 X31.266 Y97.699 E30.06786
G1 X31.556 Y96.825 E30.09849
G1 X31.921 Y95.98 E30.1291
G1 X32.358 Y95.17 E30.15971
G1 X32.863 Y94.4 E30.19034
G1 X33.434 Y93.678 E30.22096
G1 X34.065 Y93.007 E30.25159
G1 X34.705 Y92.432 E30.28021
G1 X35.66 Y91.642 E30.32143
G1 X37.631 Y89.971 E30.40737
G1 X39.541 Y88.255 E30.49277
G1 X41.356 Y86.529 E30.57608
G1 X43.165 Y84.71 E30.6614
G1 X44.867 Y82.898 E30.74409
G1 X46.541 Y81.011 E30.82799
G1 X48.193 Y79.041 E30.9135
G1 X49.747 Y77.077 E30.9968
G1 X51.256 Y75.055 E31.08071
G1 X52.71 Y72.986 E31.16482
G1 X54.108 Y70.875 E31.24903
G1 X55.464 Y68.693 E31.33448
G1 X56.307 Y67.263 E31.38969
G1 X61.177 Y58.828 E31.71364
G1 X61.631 Y58.066 E31.74314
G1 X62.136 Y57.296 E31.77377
G1 X62.707 Y56.574 E31.80439
G0 F6000 X63.032 Y56.809
G1 F1200 X63.654 Y56.154 E31.83443
G1 X64.331 Y55.556 E31.86447
G1 X65.058 Y55.021 E31.8945
G1 X65.83 Y54.552 E31.92454
G1 X66.641 Y54.153 E31.9546
G1 X67.483 Y53.828 E31.98462
G1 X68.351 Y53.578 E32.01466
G1 X69.237 Y53.406 E32.04468
G1 X70.136 Y53.314 E32.07474
G1 X70.699 Y53.296 E32.09347
G1 X73.468 Y53.286 E32.18557
G1 X76.001 Y53.208 E32.26986
G1 X78.527 Y53.057 E32.35402
G1 X81.181 Y52.824 E32.44264
G1 X82.129 Y52.726 E32.47434
G1 X83.031 Y52.673 E32.50439
G1 X83.933 Y52.7 E32.5344
G1 X84.83 Y52.807 E32.56445
G1 X85.714 Y52.993 E32.59449
G1 X86.497 Y53.228 E32.62168
G1 X87.327 Y53.514 E32.65088
G1 X172.038 Y84.346 E35.6492
G1 X172.68 Y84.592 E35.67207
G1 X173.508 Y84.952 E35.7021
G1 X174.301 Y85.384 E35.73213
G1 X175.053 Y85.885 E35.76219
G1 X175.757 Y86.45 E35.79221
G1 X176.258 Y86.92 E35.81506
G1 X177.156 Y87.821 E35.85737
G1 X179.037 Y89.657 E35.94479
G1 X180.883 Y91.361 E36.02835
G1 X182.8 Y93.031 E36.11291
G1 X185 Y94.837 E36.20758
G1 X185.672 Y95.441 E36.23763
G1 X186.288 Y96.101 E36.26766
G1 X186.843 Y96.813 E36.29768
G1 X187.333 Y97.572 E36.32773
G1 X187.754 Y98.371 E36.35777
G1 X188.103 Y99.204 E36.38781
G1 X188.376 Y100.065 E36.41785
G1 X188.572 Y100.946 E36.44787
G1 X188.69 Y101.842 E36.47793
G1 X188.726 Y102.523 E36.50061
G1 X188.747 Y103.699 E36.53973
G1 X188.75 Y153.797 E38.206
G1 X188.739 Y154.545 E38.23088
G1 X188.688 Y155.419 E38.26
G1 X188.616 Y156.055 E38.28128
G1 X188.542 Y156.577 E38.29882
G1 X188.376 Y157.464 E38.32883
G1 X188.132 Y158.334 E38.35889
G1 X187.947 Y158.849 E38.37709
G1 X187.758 Y159.334 E38.3944
G1 X187.501 Y159.948 E38.41654
G1 X187.108 Y160.761 E38.44657
G1 X186.645 Y161.537 E38.47663
G1 X186.374 Y161.928 E38.49245
G1 X185.968 Y162.471 E38.515
G1 X185.625 Y162.903 E38.53335
G1 X185.033 Y163.584 E38.56336
G1 X184.383 Y164.211 E38.5934
G1 X183.982 Y164.546 E38.61078
G1 X183.436 Y164.976 E38.63389
G1 X183.147 Y165.193 E38.64591
G1 X182.401 Y165.702 E38.67595
G1 X181.613 Y166.144 E38.706
G1 X181.143 Y166.366 E38.72329
G1 X180.654 Y166.582 E38.74107
G1 X180.111 Y166.808 E38.76063
G1 X179.261 Y167.112 E38.79066
G1 X178.387 Y167.338 E38.82068
G1 X177.671 Y167.467 E38.84488
G1 X177.17 Y167.537 E38.8617
G1 X176.6 Y167.602 E38.88079
G1 X175.775 Y167.663 E38.9083
G1 X175.136 Y167.678 E38.92956
G1 X45.111 Y167.677 E43.25421
G1 X44.413 Y167.667 E43.27743
G1 X43.594 Y167.622 E43.30471
G1 X42.84 Y167.539 E43.32994
G1 X42.327 Y167.465 E43.34718
G1 X41.439 Y167.296 E43.37724
G1 X40.571 Y167.05 E43.40725
G1 X40.11 Y166.885 E43.42353
G1 X39.623 Y166.697 E43.4409
G1 X39.025 Y166.449 E43.46243
G1 X38.21 Y166.059 E43.49248
G1 X37.433 Y165.6 E43.52249
G1 X36.844 Y165.188 E43.5464
G1 X36.46 Y164.897 E43.56243
G1 X36.021 Y164.548 E43.58108
G1 X35.339 Y163.956 E43.61112
G1 X34.713 Y163.305 E43.64116
G1 X34.391 Y162.921 E43.65782
G1 X34.132 Y162.596 E43.67165
G1 X33.74 Y162.081 E43.69317
G1 X33.23 Y161.337 E43.72317
G1 X32.787 Y160.549 E43.75324
G1 X32.558 Y160.066 E43.77102
G1 X32.359 Y159.615 E43.78741
G1 X32.107 Y159.005 E43.80937
G1 X31.806 Y158.153 E43.83942
G1 X31.582 Y157.278 E43.86946
G1 X31.495 Y156.809 E43.88533
G1 X31.391 Y156.097 E43.90926
G1 X31.326 Y155.529 E43.92827
G1 X31.265 Y154.685 E43.95642
G1 X31.25 Y154.046 E43.97768
G1 X31.25 Y101.155 E45.73684
G1 X31.262 Y100.431 E45.76092
G1 X31.317 Y99.53 E45.79095
G1 X31.452 Y98.636 E45.82102
G1 X31.665 Y97.759 E45.85104
G1 X31.954 Y96.903 E45.88109
G1 X32.319 Y96.077 E45.91112
G1 X32.755 Y95.286 E45.94116
G1 X33.259 Y94.537 E45.97119
G1 X33.827 Y93.835 E46.00122
G1 X34.455 Y93.186 E46.03126
G1 X34.96 Y92.74 E46.05367
G1 X35.893 Y91.968 E46.09395
G1 X37.928 Y90.243 E46.18268
G1 X39.801 Y88.56 E46.26643
G1 X41.633 Y86.818 E46.35051
G1 X43.458 Y84.984 E46.43656
G1 X45.142 Y83.191 E46.51838
G1 X46.864 Y81.249 E46.6047
G1 X48.48 Y79.322 E46.68835
G1 X50.078 Y77.302 E46.77402
G1 X51.592 Y75.273 E46.85822
G1 X53.039 Y73.215 E46.94189
G1 X54.438 Y71.101 E47.02621
G1 X55.809 Y68.895 E47.11259
G1 X56.676 Y67.425 E47.16936
G1 X61.597 Y58.903 E47.49666
G1 X61.974 Y58.271 E47.52114
G1 X62.471 Y57.516 E47.5512
G1 X63.032 Y56.809 E47.58122
G1 F1500 E41.08122
;MESH:Skiff-right-end.stl
G0 F6000 X69.988 Y63.437
G0 X44.59 Y156.878
;TYPE:WALL-INNER
G1 F1500 E47.58122
G1 F1200 X175.41 Y156.878 E51.93231
G1 X176.104 Y156.787 E51.95559
G1 X176.707 Y156.533 E51.97735
G1 X177.215 Y156.14 E51.99872
G1 X177.615 Y155.619 E52.02056
G1 X177.862 Y155.013 E52.04233
G1 X177.951 Y154.338 E52.06497
G1 X177.948 Y103.117 E53.76859
G1 X168.798 Y99.788 E54.09244
G1 X168.63 Y99.681 E54.09906
G1 X168.5 Y99.512 E54.10615
G1 X168.435 Y99.295 E54.11369
G1 X168.433 Y94.526 E54.27231
G1 X83.376 Y63.569 E57.28286
G1 X80.35 Y67.176 E57.43945
G1 X80.202 Y67.303 E57.44594
G1 X79.972 Y67.385 E57.45406
G1 X79.766 Y67.383 E57.46091
G1 X71.01 Y64.201 E57.77077
G1 X52.614 Y96.054 E58.9942
G1 X52.02 Y96.854 E59.02734
G1 X51.226 Y97.522 E59.06185
G1 X50.315 Y97.982 E59.09579
G1 X42.049 Y100.995 E59.38842
G1 X42.05 Y154.34 E61.16268
G1 X42.141 Y155.033 E61.18593
G1 X42.395 Y155.635 E61.20766
G1 X42.784 Y156.139 E61.22883
G1 X43.309 Y156.543 E61.25087
G1 X43.916 Y156.79 E61.27266
G1 X44.59 Y156.878 E61.29527
G0 F6000 X44.564 Y157.278
;TYPE:WALL-OUTER
G1 F1200 X175.436 Y157.278 E65.64809
G1 X176.21 Y157.177 E65.67405
G1 X176.91 Y156.881 E65.69933
G1 X177.501 Y156.425 E65.72416
G1 X177.965 Y155.82 E65.74952
G1 X178.252 Y155.116 E65.7748
G1 X178.351 Y154.364 E65.80003
G1 X178.348 Y102.837 E67.51383
G1 X168.954 Y99.42 E67.8463
G1 X168.833 Y99.308 E67.85178
G1 X168.833 Y94.246 E68.02015
G1 X83.25 Y63.097 E71.04932
G1 X80.03 Y66.934 E71.21593
G1 X79.857 Y66.988 E71.22195
G1 X70.831 Y63.71 E71.54134
G1 X52.279 Y95.835 E72.7752
G1 X51.73 Y96.574 E72.80582
G1 X50.984 Y97.198 E72.83816
G1 X50.155 Y97.615 E72.86903
G1 X41.649 Y100.715 E73.17014
G1 X41.65 Y154.366 E74.95458
G1 X41.751 Y155.139 E74.98051
G1 X42.047 Y155.838 E75.00576
G1 X42.499 Y156.425 E75.0304
G1 X43.108 Y156.893 E75.05595
G1 X43.813 Y157.18 E75.08126
G1 X44.564 Y157.278 E75.10645
G0 F6000 X44.614 Y156.517
;TYPE:SKIN
G1 F1200 X175.385 Y156.517 E79.45591
G1 X176.012 Y156.435 E79.47694
G1 X176.52 Y156.22 E79.49529
G1 X176.96 Y155.881 E79.51377
G1 X177.3 Y155.435 E79.53242
G1 X177.51 Y154.921 E79.55089
G1 X177.59 Y154.313 E79.57128
G1 X177.588 Y103.371 E81.26562
G1 X168.647 Y100.115 E81.5821
G1 X168.35 Y99.918 E81.59396
G1 X168.181 Y99.682 E81.60361
G1 X168.077 Y99.333 E81.61573
G1 X168.073 Y94.778 E81.76723
G1 X83.489 Y63.994 E84.76103
G1 X80.626 Y67.407 E84.90919
G1 X80.403 Y67.602 E84.91905
G1 X80.164 Y67.712 E84.9278
G1 X79.861 Y67.749 E84.93795
G1 X79.626 Y67.716 E84.94584
G1 X71.171 Y64.642 E85.24507
G1 X52.899 Y96.277 E86.46015
G1 X52.278 Y97.109 E86.49468
G1 X51.41 Y97.834 E86.5323
G1 X50.497 Y98.294 E86.5663
G1 X42.41 Y101.246 E86.85263
G1 X42.41 Y109.843 E87.13857
G1 X42.411 Y154.317 E88.61778
G1 X42.493 Y154.94 E88.63868
